; generated by PrusaSlicer 2.9.4 on 2026-01-10 at 20:34:02 UTC

; 

; external perimeters extrusion width = 0.45mm
; perimeters extrusion width = 0.45mm
; infill extrusion width = 0.45mm
; solid infill extrusion width = 0.45mm
; top infill extrusion width = 0.40mm
; first layer extrusion width = 0.70mm

M104 S200 ; set temperature
;TYPE:Custom
G28 ; home all axes
G1 Z5 F5000 ; lift nozzle
M109 S200 ; set temperature and wait for it to be reached
G21 ; set units to millimeters
G90 ; use absolute coordinates
M82 ; use absolute distances for extrusion
G92 E0
; Filament gcode
M107
;LAYER_CHANGE
;Z:0.35
;HEIGHT:0.35
G1 E-2 F2400
G92 E0
G1 Z.35 F7800
G1 X92.497 Y95.956
G1 E2 F2400
;TYPE:Skirt/Brim
;WIDTH:0.7
G1 F734
G1 X94.196 Y94.499 E2.20352
G1 X95.584 Y93.895 E2.34116
G1 X97.393 Y93.565 E2.50837
G1 X98.793 Y93.534 E2.6357
G1 X100.955 Y94.112 E2.83919
G1 X102.779 Y95.409 E3.0427
G1 X103.806 Y96.796 E3.19963
G1 X104.6 Y98.248 E3.35011
G1 X105.344 Y100.667 E3.58024
G1 X105.174 Y102.898 E3.78369
G1 X104.236 Y104.931 E3.98728
G1 X102.648 Y106.508 E4.19078
G1 X100.051 Y107.546 E4.44509
G1 X98.035 Y107.56 E4.62841
G1 X97.567 Y107.472 E4.67171
G1 X96.443 Y107.12 E4.77881
G1 X95.222 Y106.625 E4.89861
G1 X94.247 Y106.128 E4.99812
G1 X92.351 Y104.327 E5.2359
G1 X91.362 Y102.075 E5.45955
G1 X91.185 Y101.271 E5.53441
G1 X91.392 Y97.974 E5.8348
G1 X92.468 Y96.008 E6.03859
G1 E4.03859 F2400
G92 E0
G92 E0
G1 X97.749 Y100.537 F7800
G1 E2 F2400
;TYPE:External perimeter
;WIDTH:0.448061
G1 F734
G1 X98.131 Y100.667 E2.0219
;WIDTH:0.415111
G1 X98.692 Y101.079 E2.05634
G1 X98.37 Y100.843 F7800
;LAYER_CHANGE
;Z:0.65
;HEIGHT:0.3
G1 Z.65 F7800
G1 X97.822 Y100.56
;WIDTH:0.404381
G1 F600
G1 X97.98 Y100.691 E2.06504
G1 X98.127 Y100.746 E2.0717
;WIDTH:0.451469
G1 X98.342 Y100.88 E2.08393
;WIDTH:0.498557
G1 X98.557 Y101.013 E2.09762
;WIDTH:0.545645
G1 X98.772 Y101.147 E2.11283
;WIDTH:0.592733
G1 X98.987 Y101.281 E2.12952
G1 X99.196 Y101.468 E2.148
;TYPE:Overhang perimeter
;WIDTH:0.4
;HEIGHT:0.4
G1 F900
G1 X99.275 Y101.575 E2.15495
G1 X98.951 Y101.34 F7800
G1 E.15495 F2400
G92 E0
G1 X100.172 Y98.35 F7800
G1 E2 F2400
G1 F900
G1 X100.109 Y98.387 E2.00382
G1 X100.172 Y98.424 E2.00764
G1 X100.194 Y98.387 E2.00989
;LAYER_CHANGE
;Z:0.95
;HEIGHT:0.3
G1 Z.95 F7800
G1 X100.619 Y98.721
;TYPE:External perimeter
;WIDTH:0.729751
G1 F600
G1 X100.59 Y98.814 E2.01797
;WIDTH:0.763377
G1 X100.56 Y98.907 E2.02649
;TYPE:Overhang perimeter
;WIDTH:0.4
;HEIGHT:0.4
G1 F900
G1 X100.54 Y98.97 E2.02994
G1 X100.532 Y99.379 E2.05131
;TYPE:External perimeter
;WIDTH:0.539056
;HEIGHT:0.3
G1 F600
G1 X100.532 Y99.381 E2.05143
;WIDTH:0.497647
G1 X100.532 Y99.383 E2.05154
;WIDTH:0.456239
G1 X100.532 Y99.385 E2.05164
;WIDTH:0.414765
G1 X100.358 Y99.813 E2.07183
;WIDTH:0.456109
G1 X100.184 Y100.239 E2.09431
;WIDTH:0.476125
G1 X100.218 Y100.284 E2.09721
;TYPE:Overhang perimeter
;WIDTH:0.4
;HEIGHT:0.4
G1 F900
G1 X100.274 Y100.358 E2.10206
G1 X100.73 Y100.644 E2.13018
G1 X101.154 Y100.959 E2.15778
G1 X101.304 Y101.176 E2.17156
G1 X101.042 Y101.155 E2.18529
G1 X100.539 Y100.957 E2.21353
G1 X100.076 Y100.682 E2.24166
G1 X99.867 Y100.495 E2.25631
;TYPE:External perimeter
;WIDTH:0.456109
;HEIGHT:0.3
G1 F600
G1 X99.795 Y100.276 E2.26757
G1 X99.903 Y99.956 E2.28407
;WIDTH:0.418563
G1 X100.249 Y99.266 E2.31817
;WIDTH:0.417436
G1 X100.268 Y99.247 E2.31935
;WIDTH:0.461451
G1 X100.287 Y99.227 E2.32072
;WIDTH:0.505465
G1 X100.306 Y99.208 E2.3222
;WIDTH:0.54948
G1 X100.325 Y99.189 E2.32383
;TYPE:Overhang perimeter
;WIDTH:0.4
;HEIGHT:0.4
G1 F900
G1 X100.498 Y99.013 E2.33672
G1 X100.536 Y99.411 F7800
G1 E.33672 F2400
G92 E0
G1 X97.89 Y100.584 F7800
G1 E2 F2400
;TYPE:External perimeter
;WIDTH:0.404381
;HEIGHT:0.3
G1 F600
G1 X97.869 Y100.621 E2.0018
G1 X97.805 Y100.584 E2.00493
G1 X97.869 Y100.548 E2.00804
G1 E.00804 F2400
G92 E0
G1 X99.426 Y101.853 F7800
G1 E2 F2400
;WIDTH:0.37664
G1 F600
G1 X99.639 Y102.125 E2.01346
;WIDTH:0.37733
G1 X99.742 Y102.452 E2.02684
;TYPE:Overhang perimeter
;WIDTH:0.4
;HEIGHT:0.4
G1 F900
G1 X99.759 Y102.506 E2.0298
G1 X99.688 Y102.55 E2.03416
G1 X99.6 Y102.536 E2.03882
;TYPE:External perimeter
;WIDTH:0.380141
;HEIGHT:0.3
G1 F600
G1 X99.481 Y102.516 E2.04357
G1 X99.379 Y102.289 E2.05337
;WIDTH:0.37664
G1 X99.341 Y101.995 E2.06492
G1 X99.395 Y101.905 E2.06901
G1 X99.672 Y102.194 F7800
M106 S255
;LAYER_CHANGE
;Z:1.25
;HEIGHT:0.3
G1 E.06901 F2400
G92 E0
G1 Z1.25 F7800
G1 X100.77 Y98.609
G1 E2 F2400
;WIDTH:0.404381
G1 F600
G1 X100.675 Y98.816 E2.00966
G1 X100.85 Y100.694 F7800
;WIDTH:0.57018
G1 F600
G1 X101.202 Y100.85 E2.03395
G1 X101.508 Y101.048 E2.05694
G1 X101.564 Y101.197 E2.06698
G1 X101.557 Y101.374 E2.07815
G1 X101.402 Y101.604 E2.09565
;TYPE:Overhang perimeter
;WIDTH:0.4
;HEIGHT:0.4
G1 F900
G1 X101.323 Y101.722 E2.10307
G1 X101.368 Y101.758 E2.10608
G1 X101.362 Y101.904 E2.11371
G1 X100.961 Y102.191 E2.13947
G1 X100.514 Y102.416 E2.16562
G1 X100.166 Y102.546 E2.18503
;TYPE:External perimeter
;WIDTH:0.507277
;HEIGHT:0.3
G1 F600
G1 X100.018 Y102.601 E2.19375
G1 X99.783 Y102.639 E2.2069
G1 X99.529 Y102.602 E2.22108
G1 X99.425 Y102.541 E2.22774
G1 X99.435 Y102.392 E2.23599
G1 X99.584 Y102.278 E2.24635
G1 X100.059 Y102.12 E2.274
;TYPE:Overhang perimeter
;WIDTH:0.4
;HEIGHT:0.4
G1 F900
G1 X100.623 Y101.963 E2.30459
G1 X101.02 Y101.659 E2.33071
G1 X101.108 Y101.631 E2.33553
G1 X101.111 Y101.597 E2.33731
;TYPE:External perimeter
;WIDTH:0.57018
;HEIGHT:0.3
G1 F600
G1 X101.122 Y101.425 E2.34818
G1 X100.871 Y100.751 E2.39355
G1 X101.252 Y100.87 F7800
G1 E.39355 F2400
G92 E0
G1 X97.544 Y98.35 F7800
G1 E2 F2400
;TYPE:Overhang perimeter
;WIDTH:0.4
;HEIGHT:0.4
G1 F900
G1 X97.444 Y98.116 E2.01329
G1 E.01329 F2400
G92 E0
G1 X98.689 Y103.264 F7800
G1 E2 F2400
G1 F900
G1 X98.723 Y103.109 E2.00829
;LAYER_CHANGE
;Z:1.55
;HEIGHT:0.3
G1 E.00829 F2400
G92 E0
G1 Z1.55 F7800
G1 X100.545 Y98.078
G1 E2 F2400
;HEIGHT:0.4
G1 F900
G1 X100.611 Y98.224 E2.00837
;TYPE:External perimeter
;WIDTH:0.404381
;HEIGHT:0.3
G1 F600
G1 X100.825 Y98.697 E2.03039
G1 X101.011 Y98.953 E2.04381
;WIDTH:0.365915
G1 X101.011 Y98.954 E2.04385
;WIDTH:0.327449
G1 X101.012 Y98.954 E2.04388
;WIDTH:0.288983
G1 X101.013 Y98.955 E2.04392
;TYPE:Overhang perimeter
;WIDTH:0.4
;HEIGHT:0.4
G1 F900
G1 X101.205 Y99.086 E2.05606
G1 X101.411 Y98.923 E2.06978
G1 X101.373 Y98.721 E2.08052
G1 X101.178 Y98.222 E2.10851
G1 X101.154 Y97.757 E2.13284
G1 X101.248 Y97.36 E2.15415
G1 X101.544 Y96.917 E2.18199
G1 X101.909 Y96.636 E2.20606
G1 X102.233 Y96.495 E2.22452
G1 X102.666 Y96.424 E2.24744
G1 X102.967 Y96.462 E2.26329
G1 X103.444 Y96.658 E2.29023
G1 X103.795 Y96.959 E2.31439
G1 X104.046 Y97.397 E2.34076
G1 X104.113 Y97.661 E2.35499
G1 X104.104 Y98.178 E2.382
G1 X103.927 Y98.665 E2.40907
G1 X103.579 Y99.074 E2.43713
G1 X103.14 Y99.327 E2.4636
G1 X102.602 Y99.4 E2.49197
G1 X102.202 Y99.355 E2.513
G1 X101.784 Y99.166 E2.53697
G1 X101.521 Y98.987 E2.55359
G1 X101.413 Y98.952 E2.55952
G1 X101.205 Y99.086 E2.57245
G1 X101.298 Y99.731 E2.6065
G1 X100.869 Y99.947 E2.63159
G1 X100.664 Y99.95 E2.6423
;TYPE:External perimeter
;WIDTH:0.404381
;HEIGHT:0.3
G1 F600
G1 X100.191 Y99.955 E2.66236
;TYPE:Overhang perimeter
;WIDTH:0.4
;HEIGHT:0.4
G1 F900
G1 X100.011 Y99.957 E2.67176
;TYPE:External perimeter
;WIDTH:0.404381
;HEIGHT:0.3
G1 F600
G1 X99.525 Y99.962 E2.69237
;TYPE:Overhang perimeter
;WIDTH:0.4
;HEIGHT:0.4
G1 F900
G1 X98.685 Y99.971 E2.73626
G1 X98.385 Y99.912 E2.75223
G1 X98.334 Y99.7 E2.76362
G1 X98.622 Y99.497 E2.78203
G1 X99.159 Y98.898 E2.82406
G1 X99.542 Y98.785 F7800
G1 E.82406 F2400
G92 E0
G1 X97.802 Y100.556 F7800
G1 E2 F2400
;TYPE:External perimeter
;WIDTH:0.404381
;HEIGHT:0.3
G1 F600
G1 X98.055 Y100.576 E2.01076
G1 X98.298 Y100.525 E2.02129
G1 X98.299 Y100.463 E2.02392
;TYPE:Overhang perimeter
;WIDTH:0.4
;HEIGHT:0.4
G1 F900
G1 X98.304 Y100.194 E2.03798
G1 X98.372 Y99.947 E2.05136
G1 X98.334 Y99.7 E2.06442
G1 X98.228 Y99.598 E2.07211
G1 X98.046 Y99.299 E2.0904
G1 X98.433 Y98.907 E2.11918
G1 X98.662 Y98.544 E2.1416
G1 X98.793 Y98.153 E2.16314
G1 X98.799 Y97.663 E2.18874
G1 X98.681 Y97.283 E2.20953
G1 X98.398 Y96.88 E2.23526
G1 X98.138 Y96.674 E2.25259
G1 X97.821 Y96.529 E2.2708
G1 X97.319 Y96.452 E2.29733
G1 X96.822 Y96.569 E2.32401
G1 X96.391 Y96.825 E2.3502
G1 X96.048 Y97.249 E2.37869
G1 X95.905 Y97.62 E2.39946
G1 X95.879 Y98.164 E2.42791
G1 X96.048 Y98.67 E2.45578
G1 X96.369 Y99.057 E2.48205
G1 X96.646 Y99.251 E2.49972
G1 X96.959 Y99.36 E2.51704
G1 X97.478 Y99.394 E2.54421
G1 X97.858 Y99.304 E2.56461
G1 X98.046 Y99.299 E2.57444
G1 X98.094 Y99.696 F7800
G1 E.57444 F2400
G92 E0
G1 X98.382 Y102.609 F7800
G1 E2 F2400
G1 F900
G1 X98.557 Y102.471 E2.01164
G1 X99.95 Y102.345 F7800
;TYPE:Perimeter
;WIDTH:0.398589
;HEIGHT:0.3
G1 F600
G1 X100.135 Y102.305 E2.01953
G1 X99.552 Y102.705 F7800
;TYPE:External perimeter
;WIDTH:0.45
G1 F600
G1 X99.626 Y102.085 E2.04956
G1 X99.864 Y102.002 E2.06168
;WIDTH:0.494034
G1 X100.074 Y101.972 E2.07305
;WIDTH:0.538068
G1 X100.283 Y101.942 E2.08552
;WIDTH:0.582102
G1 X100.493 Y101.912 E2.09922
;WIDTH:0.593651
G1 X100.805 Y101.731 E2.12303
;WIDTH:0.603031
G1 X101.071 Y101.352 E2.15414
;WIDTH:0.609623
G1 X101.073 Y101.193 E2.16495
G1 X100.894 Y100.883 E2.18929
G1 X101.292 Y100.947 E2.2167
G1 X101.497 Y101.056 E2.23249
G1 X101.631 Y101.192 E2.24547
G1 X101.595 Y101.476 E2.26494
;WIDTH:0.602827
G1 X101.404 Y101.813 E2.29095
;WIDTH:0.612779
G1 X101.368 Y101.963 E2.3015
G1 X101.165 Y102.108 E2.31856
;WIDTH:0.593651
G1 X100.756 Y102.358 E2.3502
;WIDTH:0.577392
G1 X100.603 Y102.449 E2.36159
;WIDTH:0.542814
G1 X100.45 Y102.539 E2.37218
;WIDTH:0.508236
G1 X100.296 Y102.63 E2.38208
;WIDTH:0.473659
G1 X99.804 Y102.728 E2.40769
;WIDTH:0.45
G1 X99.612 Y102.71 E2.41697
G1 X99.599 Y102.31 F7800
;LAYER_CHANGE
;Z:1.85
;HEIGHT:0.3
G1 E.41697 F2400
G92 E0
G1 Z1.85 F7800
G1 X97.836 Y100.575
G1 E2 F2400
;WIDTH:0.404381
G1 F600
G1 X97.815 Y100.612 E2.0018
G1 X97.751 Y100.575 E2.00493
G1 X97.815 Y100.538 E2.00806
G1 X96.982 Y99.374 F7800
G1 F600
G1 X96.83 Y99.33 E2.01477
G1 X96.424 Y99.107 E2.03441
G1 X96.086 Y98.743 E2.05547
G1 X95.976 Y98.508 E2.06647
G1 X95.868 Y98.1 E2.08437
G1 X95.905 Y97.589 E2.1061
G1 X96.103 Y97.113 E2.12796
G1 X96.288 Y96.899 E2.13996
G1 X96.345 Y97.295 F7800
G1 E.13996 F2400
G92 E0
G1 X101.394 Y99.333 F7800
G1 E2 F2400
G1 F600
G1 X101.373 Y99.369 E2.00177
G1 X101.309 Y99.333 E2.00488
G1 X101.373 Y99.296 E2.00801
G1 E.00801 F2400
G92 E0
G1 X101.342 Y101.439 F7800
G1 E2 F2400
;TYPE:Perimeter
;WIDTH:0.38866
G1 F600
G1 X101.215 Y101.625 E2.00911
;WIDTH:0.426687
G1 X101.088 Y101.811 E2.01929
G1 X100.852 Y102.003 E2.03304
;WIDTH:0.394579
G1 X100.632 Y102.121 E2.04332
;WIDTH:0.420861
G1 X100.314 Y102.218 E2.0581
;WIDTH:0.447143
G1 X99.996 Y102.314 E2.07396
G1 X99.17 Y102.632 F7800
;TYPE:External perimeter
;WIDTH:0.630123
G1 F600
G1 X99.128 Y102.628 E2.07694
G1 X99.172 Y102.537 E2.08407
;WIDTH:0.585092
G1 X99.216 Y102.447 E2.09058
;WIDTH:0.540061
G1 X99.26 Y102.356 E2.09658
;WIDTH:0.49503
G1 X99.304 Y102.266 E2.10196
;WIDTH:0.45
G1 X99.513 Y102.106 E2.11462
G1 X99.874 Y101.949 E2.13355
G1 X100.542 Y101.775 E2.16675
G1 X100.775 Y101.599 E2.18079
G1 X101.081 Y101.227 E2.20396
G1 X101.242 Y101.105 E2.21368
G1 X101.421 Y101.055 E2.22262
G1 X101.689 Y101.136 E2.23609
G1 X101.725 Y101.227 E2.2408
G1 X101.718 Y101.465 E2.25225
G1 X101.458 Y101.9 E2.27662
G1 X101.453 Y102.031 E2.28293
G1 X100.938 Y102.374 E2.31269
G1 X100.395 Y102.626 E2.34148
G1 X99.87 Y102.731 E2.36723
;WIDTH:0.476866
G1 X99.612 Y102.691 E2.38066
;WIDTH:0.503732
G1 X99.354 Y102.652 E2.39496
;WIDTH:0.545862
G1 X99.279 Y102.644 E2.39949
;WIDTH:0.587992
G1 X99.23 Y102.638 E2.40271
G1 X99.294 Y102.244 F7800
G1 X98.701 Y103.075
;TYPE:Perimeter
;WIDTH:0.390835
G1 F600
G1 X98.681 Y103.111 E2.40439
G1 X98.653 Y103.095 E2.4057
;TYPE:Overhang perimeter
;WIDTH:0.4
;HEIGHT:0.4
G1 F900
G1 X98.619 Y103.075 E2.40776
G1 X98.681 Y103.04 E2.41148
G1 X98.195 Y103.045 F7800
;TYPE:External perimeter
;WIDTH:0.45
;HEIGHT:0.3
G1 F600
G1 X98.269 Y103.01 E2.41542
G1 X98.528 Y102.631 E2.4375
G1 X98.667 Y102.566 E2.44488
G1 X98.758 Y102.612 E2.44978
;WIDTH:0.422612
G1 X98.849 Y102.658 E2.45434
;TYPE:Overhang perimeter
;WIDTH:0.4
;HEIGHT:0.4
G1 F900
G1 X99.005 Y102.681 E2.46258
;TYPE:External perimeter
;WIDTH:0.387222
;HEIGHT:0.3
G1 F600
G1 X99.013 Y102.681 E2.4629
;WIDTH:0.432938
G1 X99.022 Y102.682 E2.46332
;WIDTH:0.478654
G1 X99.03 Y102.682 E2.46373
;WIDTH:0.524369
G1 X99.038 Y102.682 E2.46419
;WIDTH:0.570085
G1 X99.047 Y102.683 E2.46476
;WIDTH:0.6158
G1 X99.055 Y102.683 E2.46531
;WIDTH:0.63385
G1 X99.044 Y102.796 E2.47337
;TYPE:Overhang perimeter
;WIDTH:0.4
;HEIGHT:0.4
G1 F900
G1 X99.041 Y102.832 E2.47526
;TYPE:External perimeter
;WIDTH:0.625978
;HEIGHT:0.3
G1 F600
G1 X99.035 Y102.894 E2.47962
;WIDTH:0.581983
G1 X99.028 Y102.957 E2.48371
;WIDTH:0.537989
G1 X99.022 Y103.019 E2.48739
;WIDTH:0.493994
G1 X99.016 Y103.081 E2.49073
;WIDTH:0.45
G1 X99.135 Y103.341 E2.50448
G1 X98.994 Y103.366 E2.51137
;TYPE:Overhang perimeter
;WIDTH:0.4
;HEIGHT:0.4
G1 F900
G1 X98.982 Y103.368 E2.51201
;TYPE:External perimeter
;WIDTH:0.45
;HEIGHT:0.3
G1 F600
G1 X98.815 Y103.398 E2.52017
G1 X98.748 Y103.525 E2.52708
G1 X98.359 Y103.372 E2.54718
G1 X98.239 Y103.194 E2.5575
;TYPE:Overhang perimeter
;WIDTH:0.4
;HEIGHT:0.4
G1 F900
G1 X98.224 Y103.145 E2.56018
;TYPE:External perimeter
;WIDTH:0.45
;HEIGHT:0.3
G1 F600
G1 X98.212 Y103.103 E2.56228
G1 X98.433 Y102.77 F7800
G1 E.56228 F2400
G92 E0
G1 X102.669 Y97.929 F7800
G1 E2 F2400
;WIDTH:0.404381
G1 F600
G1 X102.648 Y97.966 E2.0018
G1 X102.584 Y97.929 E2.00493
G1 X102.648 Y97.892 E2.00806
;LAYER_CHANGE
;Z:2.15
;HEIGHT:0.3
G1 E.00806 F2400
G92 E0
G1 Z2.15 F7800
G1 X100.382 Y99.208
G1 E2 F2400
;TYPE:Overhang perimeter
;WIDTH:0.4
;HEIGHT:0.4
G1 F900
G1 X100.161 Y99.729 E2.02957
G1 X100.157 Y99.857 E2.03626
G1 E.03626 F2400
G92 E0
G1 X100.022 Y102.305 F7800
G1 E2 F2400
;TYPE:Perimeter
;WIDTH:0.380099
;HEIGHT:0.3
G1 F600
G1 X100.141 Y102.267 E2.00492
G1 E.00492 F2400
G92 E0
G1 X100.448 Y100.237 F7800
G1 E2 F2400
;TYPE:Overhang perimeter
;WIDTH:0.4
;HEIGHT:0.4
G1 F900
G1 X101.043 Y100.66 E2.03814
;TYPE:External perimeter
;WIDTH:0.606286
;HEIGHT:0.3
G1 F600
G1 X101.239 Y100.808 E2.05474
G1 X101.602 Y101.141 E2.08803
G1 X101.638 Y101.244 E2.0954
G1 X101.567 Y101.523 E2.11486
;WIDTH:0.611742
G1 X101.322 Y101.894 E2.14521
G1 X101.337 Y101.964 E2.1501
G1 X100.728 Y102.343 E2.19907
;WIDTH:0.573766
G1 X100.566 Y102.429 E2.21072
;WIDTH:0.53251
G1 X100.404 Y102.516 E2.22146
;WIDTH:0.491255
G1 X100.242 Y102.603 E2.23125
;WIDTH:0.45
G1 X99.801 Y102.668 E2.25269
G1 X99.473 Y102.609 E2.26872
G1 X99.346 Y102.534 E2.27581
G1 X99.333 Y102.357 E2.28435
G1 X99.502 Y102.158 E2.29691
G1 X99.954 Y101.956 E2.32072
;WIDTH:0.494871
G1 X100.123 Y101.936 E2.32986
;WIDTH:0.539743
G1 X100.292 Y101.916 E2.33995
;WIDTH:0.584615
G1 X100.461 Y101.896 E2.35099
G1 X100.677 Y101.801 E2.3663
;WIDTH:0.581344
G1 X100.974 Y101.495 E2.3938
;WIDTH:0.606286
G1 X101.088 Y101.285 E2.40995
G1 X101.024 Y101.023 E2.42818
G1 X100.878 Y100.824 E2.44486
;TYPE:Overhang perimeter
;WIDTH:0.4
;HEIGHT:0.4
G1 F900
G1 X100.484 Y100.286 E2.4797
G1 X100.822 Y100.499 F7800
G1 E.4797 F2400
G92 E0
G1 X98.78 Y103.073 F7800
G1 E2 F2400
;TYPE:External perimeter
;WIDTH:0.608545
;HEIGHT:0.3
G1 F600
G1 X98.841 Y103.329 E2.01786
;LAYER_CHANGE
;Z:2.45
;HEIGHT:0.3
G1 Z2.45 F7800
G1 X99.45 Y102.017
;WIDTH:0.561575
G1 F600
G1 X99.356 Y101.877 E2.02832
;WIDTH:0.559623
G1 X99.34 Y101.841 E2.03075
;WIDTH:0.51392
G1 X99.324 Y101.804 E2.03301
;WIDTH:0.468217
G1 X99.308 Y101.768 E2.03499
;TYPE:Overhang perimeter
;WIDTH:0.4
;HEIGHT:0.4
G1 F900
G1 X99.129 Y101.37 E2.05779
G1 X99.008 Y101.235 E2.06726
G1 E.06726 F2400
G92 E0
G1 X100.709 Y98.205 F7800
G1 E2 F2400
;TYPE:External perimeter
;WIDTH:0.621864
;HEIGHT:0.3
G1 F600
G1 X100.719 Y98.157 E2.00341
;WIDTH:0.651502
G1 X100.73 Y98.11 E2.00694
;TYPE:Overhang perimeter
;WIDTH:0.4
;HEIGHT:0.4
G1 F900
G1 X100.751 Y98.022 E2.01167
;TYPE:External perimeter
;WIDTH:0.654095
;HEIGHT:0.3
G1 F600
G1 X100.785 Y97.872 E2.02298
;WIDTH:0.630204
G1 X100.743 Y97.829 E2.02722
;WIDTH:0.587334
