; generated by PrusaSlicer 2.9.4 on 2026-01-10 at 20:00:57 UTC

; 

; external perimeters extrusion width = 0.45mm
; perimeters extrusion width = 0.45mm
; infill extrusion width = 0.45mm
; solid infill extrusion width = 0.45mm
; top infill extrusion width = 0.40mm
; first layer extrusion width = 0.70mm

M104 S200 ; set temperature
;TYPE:Custom
G28 ; home all axes
G1 Z5 F5000 ; lift nozzle
M109 S200 ; set temperature and wait for it to be reached
G21 ; set units to millimeters
G90 ; use absolute coordinates
M82 ; use absolute distances for extrusion
G92 E0
; Filament gcode
M107
;LAYER_CHANGE
;Z:0.35
;HEIGHT:0.35
G1 E-2 F2400
G92 E0
G1 Z.35 F7800
G1 X94.758 Y90.802
G1 E2 F2400
;TYPE:Skirt/Brim
;WIDTH:0.7
G1 F1069
G1 X96.743 Y89.767 E2.20356
G1 X98.509 Y89.481 E2.36623
G1 X103.195 Y89.491 E2.79233
G1 X105.455 Y89.915 E3.00142
G1 X107.373 Y91.07 E3.205
G1 X108.767 Y92.821 E3.40851
G1 X109.448 Y94.848 E3.60295
G1 X109.675 Y100.89 E4.15273
G1 X109.555 Y102.121 E4.26519
G1 X109.257 Y103.257 E4.37198
G1 X108.676 Y104.494 E4.49625
G1 X107.867 Y105.57 E4.61866
G1 X106.367 Y106.768 E4.79322
G1 X104.838 Y107.41 E4.94401
G1 X103.724 Y107.617 E5.04704
G1 X102.798 Y107.651 E5.1313
G1 X101.369 Y107.456 E5.26244
G1 X97.93 Y106.513 E5.58669
G1 X96.648 Y106.005 E5.71208
G1 X94.864 Y104.621 E5.91739
G1 X93.782 Y103.021 E6.09302
G1 X93.366 Y102.113 E6.18384
G1 X93.118 Y101.284 E6.26252
G1 X92.374 Y97.059 E6.65261
G1 X92.287 Y95.704 E6.77607
G1 X92.303 Y95.416 E6.8023
G1 X93.238 Y92.499 E7.08083
G1 X94.718 Y90.847 E7.28251
G1 E5.28251 F2400
G92 E0
G92 E0
G1 X103.08 Y100.108 F7800
G1 E2 F2400
;TYPE:External perimeter
;WIDTH:0.450653
G1 F1069
G1 X103.119 Y100.303 E2.01087
G1 X103.119 Y100.839 E2.04016
G1 X103.062 Y101.093 E2.05439
G1 X102.962 Y101.105 E2.05989
G1 X102.721 Y100.887 E2.07765
G1 X102.777 Y100.693 E2.08868
G1 X103.053 Y100.162 E2.12138
G1 X103.129 Y100.554 F7800
G1 E.12138 F2400
G92 E0
G1 X99.567 Y99.78 F7800
G1 E2 F2400
;WIDTH:0.584195
G1 F1069
G1 X99.616 Y99.906 E2.01001
G1 E.01001 F2400
G92 E0
G1 X99.075 Y96.178 F7800
G1 E2 F2400
;WIDTH:0.415111
G1 F1069
G1 X99.385 Y96.165 E2.01535
G1 X99.516 Y96.109 E2.0224
G1 X99.848 Y96.097 E2.03884
;LAYER_CHANGE
;Z:0.65
;HEIGHT:0.3
G1 E.03884 F2400
G92 E0
G1 Z.65 F7800
G1 X96.738 Y103.707
G1 E2 F2400
;TYPE:Overhang perimeter
;WIDTH:0.4
;HEIGHT:0.4
G1 F900
G1 X97.065 Y103.763 E2.01733
G1 X97.16 Y104.039 E2.03258
G1 X97.422 Y104.083 E2.04646
G1 E.04646 F2400
G92 E0
G1 X99.5 Y97.664 F7800
G1 E2 F2400
G1 F900
G1 X99.478 Y97.119 E2.0285
G1 E.0285 F2400
G92 E0
G1 X103.164 Y98.339 F7800
G1 E2 F2400
G1 F900
G1 X103.175 Y98.025 E2.01641
G1 X102.761 Y96.992 E2.07455
G1 X102.91 Y97.364 F7800
G1 E.07455 F2400
G92 E0
G1 X101.082 Y101.019 F7800
G1 E2 F2400
G1 F900
G1 X101.428 Y101.096 E2.01852
G1 X102.062 Y101.423 E2.05579
G1 X102.33 Y101.452 E2.06987
G1 X102.052 Y101.485 E2.0845
G1 X100.992 Y101.338 E2.14041
G1 X100.46 Y101.29 E2.16832
G1 X100.072 Y101.173 E2.18949
G1 X100.706 Y100.996 E2.22388
G1 X101.015 Y101.004 E2.24003
G1 X101.024 Y101.006 E2.24051
G1 X100.072 Y101.173 F7800
G1 F900
G1 X99.81 Y101.129 E2.25439
G1 X99.482 Y100.309 F7800
;TYPE:Perimeter
;WIDTH:0.45
;HEIGHT:0.3
G1 F600
G1 X99.65 Y100.586 E2.26997
G1 X99.719 Y100.631 E2.27393
;TYPE:Overhang perimeter
;WIDTH:0.4
;HEIGHT:0.4
G1 F900
G1 X99.88 Y100.737 E2.284
G1 X100.077 Y100.774 E2.29447
G1 X100.612 Y100.651 E2.32315
G1 X101.09 Y100.646 E2.34812
G1 X101.581 Y100.782 E2.37474
G1 X102.016 Y101.035 E2.40103
G1 X102.399 Y101.168 E2.42221
;TYPE:Perimeter
;WIDTH:0.464743
;HEIGHT:0.3
G1 F600
G1 X102.402 Y101.169 E2.42237
;WIDTH:0.504532
G1 X102.404 Y101.17 E2.42249
;WIDTH:0.544321
G1 X102.407 Y101.17 E2.42267
;WIDTH:0.58411
G1 X102.512 Y101.142 E2.42971
;WIDTH:0.577319
G1 X102.757 Y100.982 E2.44843
;WIDTH:0.563611
G1 X102.961 Y100.629 E2.47382
;WIDTH:0.554448
G1 X103.119 Y100.15 E2.50465
G1 X103.25 Y100.849 E2.54812
G1 X103.251 Y101.087 E2.56267
;WIDTH:0.563611
G1 X103.145 Y101.291 E2.57698
G1 X102.849 Y101.525 E2.60047
;TYPE:Overhang perimeter
;WIDTH:0.4
;HEIGHT:0.4
G1 F900
G1 X102.537 Y101.673 E2.61851
G1 X102.389 Y101.796 E2.62856
G1 X102.038 Y101.831 E2.64699
G1 X101.458 Y101.746 E2.67762
G1 X100.27 Y101.617 E2.74005
G1 X99.581 Y101.471 E2.77685
G1 X99.428 Y101.25 E2.79089
G1 X99.356 Y100.837 E2.81279
G1 X99.424 Y100.55 E2.8282
;TYPE:Perimeter
;WIDTH:0.45
;HEIGHT:0.3
G1 F600
G1 X99.468 Y100.368 E2.83721
G1 E.83721 F2400
G92 E0
G1 X99.503 Y97.685 F7800
G1 E2 F2400
;TYPE:Overhang perimeter
;WIDTH:0.4
;HEIGHT:0.4
G1 F900
G1 X99.672 Y98.166 E2.02664
G1 X99.643 Y98.796 E2.05959
G1 X99.674 Y99.03 E2.07192
;TYPE:External perimeter
;WIDTH:0.417899
;HEIGHT:0.3
G1 F600
G1 X99.706 Y99.283 E2.08316
;WIDTH:0.45
G1 X99.84 Y100.192 E2.12735
G1 X99.969 Y100.351 E2.1372
G1 X100.035 Y100.363 E2.14043
;TYPE:Overhang perimeter
;WIDTH:0.4
;HEIGHT:0.4
G1 F900
G1 X100.134 Y100.382 E2.1457
G1 X100.645 Y100.243 E2.17337
G1 X101.15 Y100.262 E2.19977
G1 X101.732 Y100.424 E2.23133
G1 X102.21 Y100.701 E2.26019
G1 X102.318 Y100.721 E2.26593
;TYPE:External perimeter
;WIDTH:0.45
;HEIGHT:0.3
G1 F600
G1 X102.462 Y100.648 E2.2737
G1 X102.654 Y100.163 E2.29879
G1 X102.815 Y99.677 E2.32341
;TYPE:Overhang perimeter
;WIDTH:0.4
;HEIGHT:0.4
G1 F900
G1 X102.936 Y99.309 E2.34365
G1 X103.164 Y98.34 E2.39566
G1 X103.588 Y100.231 E2.49691
G1 X103.687 Y100.839 E2.52909
G1 X103.658 Y101.308 E2.55364
G1 X103.448 Y101.641 E2.57421
G1 X103.007 Y101.958 E2.60258
G1 X102.516 Y102.16 E2.63032
G1 X102.1 Y102.213 E2.65223
G1 X100.198 Y101.996 E2.75224
G1 X99.492 Y101.883 E2.78959
G1 X99.221 Y101.685 E2.80712
G1 X99.021 Y101.305 E2.82955
G1 X98.965 Y100.813 E2.85542
G1 X99.14 Y100.079 E2.89484
;TYPE:External perimeter
;WIDTH:0.45
;HEIGHT:0.3
G1 F600
G1 X99.272 Y99.338 E2.93104
;WIDTH:0.421896
G1 X99.297 Y99.153 E2.93936
;TYPE:Overhang perimeter
;WIDTH:0.4
;HEIGHT:0.4
G1 F900
G1 X99.374 Y98.585 E2.96931
G1 X99.372 Y98.078 E2.9958
G1 X99.484 Y97.742 E3.0143
G1 X99.655 Y98.103 F7800
;LAYER_CHANGE
;Z:0.95
;HEIGHT:0.3
G1 E1.0143 F2400
G92 E0
G1 Z.95 F7800
G1 X97.066 Y98.931
G1 E2 F2400
;HEIGHT:0.4
G1 F900
G1 X97.008 Y98.931 E2.00303
G1 X96.979 Y98.981 E2.00605
G1 X97.008 Y99.031 E2.00907
G1 X97.066 Y99.031 E2.0121
G1 X97.095 Y98.981 E2.01512
G1 X97.338 Y97.684 F7800
G1 F900
G1 X97.324 Y97.861 E2.0244
G1 X97.187 Y98.252 E2.04605
G1 X97.469 Y98.344 E2.06155
G1 X97.546 Y98.479 E2.06967
G1 X97.312 Y98.155 F7800
G1 X97.372 Y97.11
G1 F900
G1 X97.362 Y97.256 E2.07732
G1 X96.587 Y97.564 F7800
;TYPE:External perimeter
;WIDTH:0.404381
;HEIGHT:0.3
G1 F900
G1 X96.576 Y97.682 E2.08235
;TYPE:Overhang perimeter
;WIDTH:0.4
;HEIGHT:0.4
G1 X96.565 Y97.812 E2.08917
G1 X97.372 Y97.11 F7800
G1 F900
G1 X97.36 Y97.034 E2.09319
G1 X97.001 Y96.257 E2.13791
;TYPE:External perimeter
;WIDTH:0.4642
;HEIGHT:0.3
G1 X96.954 Y96.155 E2.14351
G1 X97.228 Y96.116 E2.15731
G1 X97.451 Y96.03 E2.16923
;WIDTH:0.43429
G1 X97.674 Y95.945 E2.18024
;WIDTH:0.423913
G1 X97.577 Y96.013 E2.18555
G1 X97.492 Y96.242 E2.1965
;TYPE:Overhang perimeter
;WIDTH:0.4
;HEIGHT:0.4
G1 X97.454 Y96.344 E2.20219
G1 X97.378 Y97.05 E2.23929
G1 X97.201 Y96.692 F7800
G1 E.23929 F2400
G92 E0
G1 X97.347 Y101.44 F7800
G1 E2 F2400
G1 F900
G1 X97.211 Y101.866 E2.02336
G1 E.02336 F2400
G92 E0
G1 X102.501 Y96.406 F7800
G1 E2 F2400
;TYPE:External perimeter
;WIDTH:0.404381
;HEIGHT:0.3
G1 F900
G1 X102.416 Y96.533 E2.00648
;WIDTH:0.440093
G1 X102.5 Y96.616 E2.01201
;WIDTH:0.475805
G1 X102.584 Y96.7 E2.01811
;WIDTH:0.511517
G1 X102.669 Y96.783 E2.02474
G1 X102.785 Y97.038 E2.04036
;WIDTH:0.470109
G1 X102.902 Y97.292 E2.05451
;WIDTH:0.453879
G1 X103.011 Y97.524 E2.06696
;WIDTH:0.479057
G1 X103.12 Y97.755 E2.08017
;WIDTH:0.526239
G1 X103.153 Y97.847 E2.0858
;WIDTH:0.573422
G1 X103.187 Y97.938 E2.09197
;WIDTH:0.620605
G1 X103.221 Y98.03 E2.09877
;WIDTH:0.634227
G1 X103.21 Y98.516 E2.13332
G1 X103.081 Y98.138 F7800
G1 E.13332 F2400
G92 E0
G1 X99.216 Y100.982 F7800
G1 E2 F2400
;TYPE:Perimeter
;WIDTH:0.45
G1 F900
G1 X99.642 Y100.554 E2.02904
G1 X99.868 Y100.612 E2.04026
G1 X100.983 Y100.666 E2.09395
G1 X101.382 Y100.779 E2.1139
G1 X101.923 Y101.02 E2.14239
G1 X102.252 Y101.108 E2.15877
G1 X102.685 Y101.089 E2.17962
G1 X103.02 Y100.906 E2.19798
G1 X102.967 Y101.409 E2.22231
G1 X102.847 Y101.54 E2.23085
G1 X102.057 Y102.118 E2.27793
G1 X101.841 Y102.189 E2.28887
G1 X101.623 Y102.145 E2.29957
G1 X101.04 Y101.962 E2.32896
G1 X100.744 Y101.949 E2.34321
G1 X100.117 Y102.018 E2.37355
G1 X100.026 Y101.963 E2.37866
G1 X99.254 Y101.029 E2.43694
G1 E.43694 F2400
G92 E0
G1 X102.943 Y100.407 F7800
G1 E2 F2400
G1 F900
G1 X103.044 Y100.223 E2.0101
G1 X103.173 Y99.835 E2.02977
G1 X103.402 Y100.692 E2.07243
G1 X103.408 Y101.037 E2.08903
G1 X103.332 Y101.534 E2.11321
G1 X103.13 Y101.809 E2.12962
G1 X102.56 Y102.254 E2.1644
G1 X102.127 Y102.528 E2.18905
G1 X101.913 Y102.568 E2.19952
G1 X101.665 Y102.565 E2.21145
G1 X101.028 Y102.357 E2.24368
G1 X100.786 Y102.332 E2.25538
G1 X100.243 Y102.392 E2.28166
G1 X99.957 Y102.383 E2.29542
;TYPE:Overhang perimeter
;WIDTH:0.4
;HEIGHT:0.4
G1 X99.949 Y102.382 E2.29584
;TYPE:Perimeter
;WIDTH:0.45
;HEIGHT:0.3
G1 X99.731 Y102.225 E2.30876
G1 X99.032 Y101.357 E2.36236
G1 X98.728 Y101.103 E2.38141
G1 X98.544 Y101.012 E2.39128
;TYPE:Overhang perimeter
;WIDTH:0.4
;HEIGHT:0.4
G1 X98.453 Y100.967 E2.39658
G1 X98.539 Y100.93 E2.40147
;TYPE:Perimeter
;WIDTH:0.45
;HEIGHT:0.3
G1 X98.717 Y100.853 E2.4108
G1 X98.943 Y100.71 E2.42366
G1 X99.372 Y100.279 E2.45291
G1 X99.488 Y100.097 E2.46329
G1 X99.981 Y100.243 E2.48802
G1 X100.523 Y100.244 E2.51409
G1 X101.022 Y100.283 E2.53816
G1 X101.572 Y100.441 E2.56568
G1 X102.199 Y100.706 E2.59842
G1 X102.554 Y100.724 E2.61552
G1 X102.74 Y100.647 E2.6252
G1 X102.882 Y100.517 E2.63446
G1 X102.914 Y100.459 E2.63765
G1 X102.623 Y100.168 F7800
;TYPE:External perimeter
G1 F900
G1 X102.713 Y100.017 E2.6461
G1 X102.864 Y99.532 E2.67053
;WIDTH:0.494221
G1 X102.949 Y99.282 E2.68469
;WIDTH:0.538443
G1 X103.034 Y99.032 E2.7003
;WIDTH:0.582664
G1 X103.119 Y98.782 E2.71737
;WIDTH:0.626886
G1 X103.204 Y98.532 E2.7359
G1 X103.238 Y98.63 E2.74318
;WIDTH:0.582664
G1 X103.272 Y98.728 E2.74989
;WIDTH:0.538443
G1 X103.306 Y98.826 E2.75602
;WIDTH:0.494221
G1 X103.34 Y98.925 E2.76163
;WIDTH:0.45
G1 X103.494 Y99.561 E2.7931
G1 X103.666 Y100.136 E2.82197
G1 X103.788 Y100.686 E2.84907
G1 X103.793 Y100.998 E2.86408
G1 X103.74 Y101.449 E2.88592
G1 X103.646 Y101.809 E2.90382
G1 X103.395 Y102.091 E2.92198
G1 X102.849 Y102.518 E2.95532
;TYPE:Overhang perimeter
;WIDTH:0.4
;HEIGHT:0.4
G1 X102.269 Y102.893 E2.9914
G1 X101.821 Y102.978 E3.01522
G1 X101.384 Y102.879 E3.03863
G1 X100.828 Y102.715 E3.06892
G1 X100.201 Y102.784 E3.10188
G1 X99.802 Y102.75 E3.1228
G1 X99.464 Y102.508 E3.14452
G1 X99.263 Y102.259 E3.16124
;TYPE:External perimeter
;WIDTH:0.45
;HEIGHT:0.3
G1 X98.731 Y101.598 E3.20205
G1 X98.651 Y101.535 E3.20695
;TYPE:Overhang perimeter
;WIDTH:0.4
;HEIGHT:0.4
G1 X98.455 Y101.38 E3.22001
G1 X98.051 Y101.278 E3.24178
G1 X97.545 Y101.364 E3.2686
G1 X97.347 Y101.44 E3.27968
G1 X97.476 Y101.125 E3.29746
G1 X97.651 Y100.954 E3.31024
G1 X98.107 Y100.696 E3.33761
G1 X98.586 Y100.476 E3.36515
;TYPE:External perimeter
;WIDTH:0.45
;HEIGHT:0.3
G1 X98.669 Y100.438 E3.36954
G1 X99.098 Y100.007 E3.39879
G1 X99.155 Y99.897 E3.40475
G1 X99.336 Y99.369 E3.4316
G1 X99.458 Y99.594 E3.44391
G1 X99.628 Y99.74 E3.45469
G1 X100.062 Y99.866 E3.47643
G1 X100.221 Y99.868 E3.48408
;TYPE:Overhang perimeter
;WIDTH:0.4
;HEIGHT:0.4
G1 X100.371 Y99.87 E3.49192
;TYPE:External perimeter
;WIDTH:0.45
;HEIGHT:0.3
G1 X100.817 Y99.874 E3.51337
G1 X101.343 Y99.957 E3.53898
G1 X102.392 Y100.35 E3.59286
G1 X102.532 Y100.322 E3.59973
G1 X102.593 Y100.22 E3.60545
G1 X102.756 Y99.855 F7800
G1 E1.60545 F2400
G92 E0
G1 X97.026 Y103.451 F7800
G1 E2 F2400
;TYPE:Perimeter
;WIDTH:0.551321
G1 F900
G1 X96.996 Y103.504 E2.0037
G1 X96.935 Y103.504 E2.0074
G1 X96.904 Y103.451 E2.01113
G1 X96.935 Y103.398 E2.01486
G1 X96.996 Y103.398 E2.01856
G1 X97.342 Y103.843 F7800
;TYPE:External perimeter
;WIDTH:0.45
G1 F900
G1 X97.274 Y103.904 E2.02295
G1 X96.562 Y103.866 E2.05724
G1 X96.205 Y103.72 E2.07579
;TYPE:Overhang perimeter
;WIDTH:0.4
;HEIGHT:0.4
G1 X95.941 Y103.612 E2.09069
G1 X95.974 Y103.572 E2.0934
G1 X96.102 Y103.504 E2.10097
G1 X96.798 Y103.011 E2.14553
G1 X96.814 Y102.843 E2.15435
G1 X96.887 Y102.545 E2.17038
G1 X96.936 Y102.175 E2.18988
G1 X97.211 Y101.866 E2.21149
G1 X97.22 Y101.985 E2.21772
G1 X97.337 Y102.247 E2.23271
G1 X97.319 Y102.413 E2.24143
G1 X97.345 Y102.609 E2.25176
G1 X97.257 Y102.902 E2.26774
G1 X97.43 Y103.219 E2.28661
G1 X97.408 Y103.376 E2.29489
;TYPE:External perimeter
;WIDTH:0.456484
;HEIGHT:0.3
G1 X97.35 Y103.784 E2.31504
G1 X96.964 Y103.888 F7800
G1 E.31504 F2400
G92 E0
G1 X99.614 Y100.997 F7800
G1 E2 F2400
;TYPE:Solid infill
;WIDTH:0.45
G1 F1200
G1 X99.74 Y100.867 E2.00871
G1 X100.154 Y100.933 E2.02887
G1 X100.555 Y100.918 E2.04817
;WIDTH:0.489803
G1 X100.742 Y100.955 E2.05828
;WIDTH:0.529607
G1 X100.929 Y100.992 E2.06934
;WIDTH:0.562758
G1 X101.429 Y101.195 E2.10288
G1 X102.056 Y101.407 E2.14402
;WIDTH:0.551294
G1 X102.411 Y101.441 E2.16568
G1 X101.861 Y101.84 E2.20695
G1 X101.625 Y101.789 E2.22161
;WIDTH:0.585951
G1 X101.045 Y101.611 E2.26108
G1 X100.941 Y101.631 E2.26797
;WIDTH:0.540634
G1 X100.837 Y101.65 E2.27425
;WIDTH:0.495317
G1 X100.732 Y101.67 E2.28
;WIDTH:0.45
G1 X100.2 Y101.718 E2.30569
G1 X99.736 Y101.146 E2.34111
G1 X100.37 Y101.314 E2.37266
;WIDTH:0.453087
G1 X100.699 Y101.301 E2.38862
M106 S252.45
;LAYER_CHANGE
;Z:1.25
;HEIGHT:0.3
G1 E.38862 F2400
G92 E0
G1 Z1.25 F7800
G1 X96.84 Y96.131
G1 E2 F2400
;TYPE:External perimeter
;WIDTH:0.404381
G1 F900
G1 X96.999 Y96.422 E2.01406
;WIDTH:0.444227
G1 X97.114 Y96.485 E2.02027
;WIDTH:0.484073
G1 X97.23 Y96.549 E2.02721
G1 X97.304 Y96.835 E2.04267
;WIDTH:0.444227
G1 X97.378 Y97.122 E2.05671
;WIDTH:0.404381
G1 X97.439 Y97.234 E2.06212
G1 X97.263 Y96.875 F7800
G1 E.06212 F2400
G92 E0
G1 X96.895 Y99.164 F7800
G1 E2 F2400
G1 F900
G1 X96.874 Y99.201 E2.0018
G1 X96.81 Y99.164 E2.00493
G1 X96.874 Y99.128 E2.00804
G1 E.00804 F2400
G92 E0
G1 X97.048 Y103.447 F7800
G1 E2 F2400
;TYPE:Perimeter
;WIDTH:0.635653
G1 F900
G1 X97.012 Y103.509 E2.00511
G1 X96.941 Y103.509 E2.01017
G1 X96.905 Y103.447 E2.01528
G1 X96.941 Y103.385 E2.02039
G1 X97.012 Y103.385 E2.02545
G1 E.02545 F2400
G92 E0
G1 X102.627 Y101.11 F7800
G1 E2 F2400
;WIDTH:0.45
G1 F900
G1 X102.747 Y101.303 E2.01093
G1 X102.86 Y101.649 E2.02844
G1 X102.588 Y101.858 E2.04494
G1 X102.125 Y102.275 E2.07491
G1 X101.877 Y102.577 E2.09371
G1 X101.584 Y102.333 E2.11205
G1 X101.328 Y102.218 E2.12555
G1 X100.921 Y102.147 E2.14542
G1 X100.613 Y102.211 E2.16055
G1 X100.144 Y102.454 E2.18596
G1 X99.256 Y101.254 E2.25776
G1 X98.915 Y100.922 E2.28065
G1 X99.266 Y100.81 E2.29837
G1 X99.787 Y100.573 E2.3259
G1 X100.338 Y100.521 E2.35252
G1 X100.93 Y100.511 E2.381
G1 X101.489 Y100.648 E2.40868
G1 X101.98 Y100.851 E2.43423
G1 X102.578 Y101.033 E2.46429
G1 X102.595 Y101.06 E2.46582
G1 X102.823 Y100.715 F7800
G1 F900
G1 X102.836 Y100.719 E2.46647
G1 X103.138 Y101.2 E2.49379
G1 X103.237 Y101.568 E2.51212
G1 X103.256 Y101.823 E2.52442
G1 X102.843 Y102.146 E2.54964
G1 X102.309 Y102.643 E2.58473
G1 X101.867 Y103.232 E2.62015
G1 X101.667 Y102.911 E2.63834
G1 X101.391 Y102.667 E2.65606
G1 X101.067 Y102.541 E2.67278
G1 X100.784 Y102.56 E2.68642
G1 X100.359 Y102.766 E2.70914
G1 X100.051 Y103.054 E2.72942
G1 X99.868 Y102.728 E2.7474
G1 X99.51 Y102.266 E2.77551
G1 X98.944 Y101.479 E2.82213
;WIDTH:0.460521
G1 X98.547 Y101.128 E2.84831
G1 X98.251 Y101.036 E2.86363
;WIDTH:0.457896
G1 X97.7 Y101.164 E2.89139
;WIDTH:0.4103
G1 X97.485 Y101.308 E2.90255
;WIDTH:0.392449
G1 X97.362 Y101.487 E2.91144
;WIDTH:0.433719
G1 X97.282 Y101.636 E2.91923
;WIDTH:0.47499
G1 X97.203 Y101.784 E2.92782
;WIDTH:0.516261
G1 X97.123 Y101.933 E2.93735
G1 X97.105 Y101.785 E2.94575
;WIDTH:0.470416
G1 X97.108 Y101.598 E2.95522
;WIDTH:0.431432
G1 X97.111 Y101.411 E2.96378
;WIDTH:0.392449
G1 X97.221 Y101.12 E2.97651
;WIDTH:0.412663
G1 X97.472 Y100.879 E2.99163
G1 X97.788 Y100.825 E3.00556
;WIDTH:0.412082
G1 X97.978 Y100.765 E3.0142
