; generated by PrusaSlicer 2.9.4 on 2026-01-10 at 20:44:49 UTC

; 

; external perimeters extrusion width = 0.45mm
; perimeters extrusion width = 0.45mm
; infill extrusion width = 0.45mm
; solid infill extrusion width = 0.45mm
; top infill extrusion width = 0.40mm
; first layer extrusion width = 0.70mm

M104 S200 ; set temperature
;TYPE:Custom
G28 ; home all axes
G1 Z5 F5000 ; lift nozzle
M109 S200 ; set temperature and wait for it to be reached
G21 ; set units to millimeters
G90 ; use absolute coordinates
M82 ; use absolute distances for extrusion
G92 E0
; Filament gcode
M107
;LAYER_CHANGE
;Z:0.35
;HEIGHT:0.35
G1 E-2 F2400
G92 E0
G1 Z.35 F7800
G1 X93.97 Y90.413
G1 E2 F2400
;TYPE:Skirt/Brim
;WIDTH:0.7
G1 F738
G1 X95.684 Y88.917 E2.20687
G1 X98.662 Y88.036 E2.48926
G1 X100.974 Y88.03 E2.69949
G1 X103.31 Y88.453 E2.91536
G1 X104.784 Y89.259 E3.06812
G1 X106.335 Y90.872 E3.27159
G1 X107.352 Y93.635 E3.53931
G1 X107.383 Y95.618 E3.71965
G1 X106.479 Y98.387 E3.98451
G1 X104.661 Y100.321 E4.22587
G1 X102.46 Y101.305 E4.4451
G1 X101.539 Y101.453 E4.52992
G1 X98.671 Y101.472 E4.79071
G1 X97.133 Y101.205 E4.93265
G1 X96.214 Y100.851 E5.0222
G1 X94.388 Y99.556 E5.22575
G1 X93.443 Y98.318 E5.36737
G1 X92.558 Y95.25 E5.65772
G1 X92.624 Y93.572 E5.81042
G1 X93.297 Y91.437 E6.01397
G1 X93.937 Y90.463 E6.11994
G1 E4.11994 F2400
G92 E0
G92 E0
G1 X100.981 Y95.049 F7800
G1 E2 F2400
;TYPE:External perimeter
;WIDTH:0.415111
G1 F738
G1 X100.967 Y94.452 E2.02954
;LAYER_CHANGE
;Z:0.65
;HEIGHT:0.3
G1 Z.65 F7800
G1 X101.677 Y94.929
;TYPE:Overhang perimeter
;WIDTH:0.4
;HEIGHT:0.4
G1 F900
G1 X101.674 Y95.066 E2.0367
M106 S255
;LAYER_CHANGE
;Z:1.25
;HEIGHT:0.6
G1 E.0367 F2400
G92 E0
G1 Z1.25 F7800
G1 X99.941 Y103.015
G1 E2 F2400
;HEIGHT:0.4
G1 F900
G1 X99.997 Y102.991 E2.00318
G1 X100.126 Y103.044 E2.01047
G1 X100.221 Y103.173 E2.01884
G1 X100.196 Y103.4 E2.03077
G1 X100.038 Y103.605 E2.04429
G1 X99.929 Y103.606 E2.04998
G1 X99.775 Y103.453 E2.06132
G1 X99.703 Y103.25 E2.07257
G1 X99.775 Y103.084 E2.08202
G1 X99.886 Y103.038 E2.0883
G1 X99.839 Y102.568 F7800
G1 F900
G1 X100.007 Y102.538 E2.09722
G1 X100.271 Y102.597 E2.11135
G1 X100.382 Y102.68 E2.11859
G1 X100.572 Y102.871 E2.13267
G1 X100.68 Y103.205 E2.15101
G1 X100.622 Y103.55 E2.16929
G1 X100.46 Y103.839 E2.1866
G1 X100.223 Y104.026 E2.20237
G1 X100.006 Y104.075 E2.21399
G1 X99.748 Y104.023 E2.22774
G1 X99.507 Y103.851 E2.24321
G1 X99.313 Y103.563 E2.26135
G1 X99.249 Y103.249 E2.27809
G1 X99.305 Y102.981 E2.29239
G1 X99.463 Y102.755 E2.3068
G1 X99.732 Y102.588 E2.32334
G1 X99.78 Y102.579 E2.32589
G1 X100.18 Y102.587 F7800
;LAYER_CHANGE
;Z:1.55
;HEIGHT:0.3
G1 Z1.55 F7800
G1 X99.9 Y102.79
;TYPE:Perimeter
;WIDTH:0.45
G1 F600
G1 X99.916 Y102.78 E2.3268
G1 X100.169 Y102.79 E2.33898
G1 X100.36 Y102.951 E2.35099
G1 X100.405 Y103.373 E2.3714
G1 X100.365 Y103.562 E2.38069
G1 X100.176 Y103.803 E2.39542
G1 X100.01 Y103.847 E2.40368
G1 X99.708 Y103.743 E2.41904
G1 X99.532 Y103.591 E2.43022
G1 X99.442 Y103.249 E2.44723
G1 X99.516 Y103.034 E2.45817
G1 X99.85 Y102.822 E2.4772
G1 X99.804 Y102.419 F7800
G1 F600
G1 X100.07 Y102.379 E2.49014
G1 X100.337 Y102.44 E2.50331
G1 X100.635 Y102.671 E2.52144
G1 X100.759 Y102.906 E2.53422
G1 X100.784 Y103.45 E2.56041
G1 X100.683 Y103.795 E2.5777
G1 X100.406 Y104.121 E2.59828
G1 X100.234 Y104.203 E2.60744
G1 X99.913 Y104.229 E2.62293
G1 X99.442 Y104.045 E2.64725
G1 X99.238 Y103.842 E2.66109
G1 X99.129 Y103.598 E2.67394
G1 X99.056 Y103.231 E2.69194
G1 X99.129 Y102.927 E2.70698
G1 X99.307 Y102.688 E2.72131
G1 X99.741 Y102.428 E2.74564
G1 X99.744 Y102.428 E2.74578
G1 X99.71 Y102.047 F7800
;TYPE:Overhang perimeter
;WIDTH:0.4
;HEIGHT:0.4
G1 F900
G1 X99.801 Y102.012 E2.75087
G1 X100.291 Y102.016 E2.77647
G1 X100.601 Y102.15 E2.79411
G1 X100.93 Y102.419 E2.81631
G1 X101.079 Y102.67 E2.83156
G1 X101.151 Y102.955 E2.84692
G1 X101.147 Y103.643 E2.88287
G1 X100.956 Y104.102 E2.90884
G1 X100.735 Y104.335 E2.92562
G1 X100.441 Y104.545 E2.9445
G1 X100.146 Y104.61 E2.96028
G1 X99.711 Y104.592 E2.98303
G1 X99.228 Y104.371 E3.01078
G1 X99.098 Y104.254 E3.01992
G1 X98.835 Y103.941 E3.04128
G1 X98.728 Y103.61 E3.05945
G1 X98.669 Y103.213 E3.08042
G1 X98.778 Y102.762 E3.10466
G1 X99.062 Y102.385 E3.12932
G1 X99.479 Y102.136 E3.15469
G1 X99.654 Y102.068 E3.1645
G1 X100.051 Y102.021 F7800
G1 X99.74 Y103.232
;TYPE:Solid infill
;WIDTH:0.436262
;HEIGHT:0.3
G1 F600
G1 X99.958 Y103.077 E3.17691
G1 X100.045 Y103.064 E3.18099
G1 X100.104 Y103.109 E3.18443
G1 X100.124 Y103.279 E3.19237
G1 X100.093 Y103.458 E3.2008
G1 X100.011 Y103.567 E3.20713
G1 X99.789 Y103.459 E3.21858
G1 X99.78 Y103.421 E3.22039
;LAYER_CHANGE
;Z:1.85
;HEIGHT:0.3
G1 Z1.85 F7800
G1 X99.789 Y102.491
;TYPE:Perimeter
;WIDTH:0.45
G1 F600
G1 X99.849 Y102.466 E3.22352
G1 X100.208 Y102.462 E3.24079
G1 X100.452 Y102.565 E3.25353
G1 X100.627 Y102.738 E3.26537
G1 X100.725 Y103.261 E3.29096
G1 X100.633 Y103.788 E3.31669
G1 X100.434 Y104.049 E3.33248
G1 X100.207 Y104.186 E3.34523
G1 X99.823 Y104.181 E3.3637
G1 X99.461 Y104.017 E3.38281
G1 X99.241 Y103.79 E3.39801
G1 X99.127 Y103.448 E3.41535
G1 X99.132 Y103.066 E3.43372
G1 X99.241 Y102.823 E3.44653
G1 X99.443 Y102.631 E3.45993
G1 X99.733 Y102.514 E3.47497
G1 X99.702 Y102.115 F7800
G1 F600
G1 X99.781 Y102.085 E3.47903
G1 X100.158 Y102.07 E3.49718
G1 X100.52 Y102.159 E3.51511
G1 X100.857 Y102.397 E3.53495
G1 X101.002 Y102.635 E3.54835
G1 X101.104 Y103.134 E3.57285
G1 X101.058 Y103.648 E3.59767
G1 X100.953 Y104.019 E3.61621
G1 X100.632 Y104.394 E3.63995
G1 X100.286 Y104.566 E3.65853
G1 X99.909 Y104.579 E3.67667
G1 X99.524 Y104.488 E3.6957
G1 X99.161 Y104.27 E3.71607
G1 X98.91 Y103.992 E3.73408
G1 X98.795 Y103.708 E3.74882
G1 X98.726 Y103.242 E3.77148
G1 X98.809 Y102.804 E3.79292
G1 X99.074 Y102.429 E3.81501
G1 X99.324 Y102.259 E3.82955
G1 X99.646 Y102.136 E3.84613
G1 X99.614 Y101.738 F7800
;TYPE:External perimeter
G1 F600
G1 X100.071 Y101.675 E3.86832
G1 X100.515 Y101.752 E3.88999
G1 X100.952 Y101.963 E3.91333
G1 X101.223 Y102.245 E3.93214
G1 X101.405 Y102.598 E3.95124
G1 X101.491 Y103.139 E3.97759
G1 X101.439 Y103.704 E4.00488
G1 X101.342 Y104.091 E4.02407
G1 X101.11 Y104.465 E4.04524
G1 X100.75 Y104.775 E4.06809
G1 X100.366 Y104.946 E4.08831
G1 X99.84 Y104.959 E4.11362
G1 X99.372 Y104.843 E4.13681
G1 X98.917 Y104.569 E4.16236
G1 X98.664 Y104.306 E4.17991
G1 X98.458 Y103.944 E4.19994
G1 X98.352 Y103.429 E4.22523
G1 X98.373 Y102.91 E4.25021
G1 X98.522 Y102.528 E4.26993
G1 X98.808 Y102.147 E4.29284
G1 X99.148 Y101.916 E4.31261
G1 X99.556 Y101.75 E4.3338
G1 X99.952 Y101.692 F7800
G1 X100.029 Y103.093
;TYPE:Solid infill
;WIDTH:0.370731
G1 F600
G1 X100.077 Y103.229 E4.33931
G1 X100.024 Y103.547 E4.35163
G1 X99.807 Y103.478 E4.36033
G1 X99.764 Y103.198 E4.37115
G1 X99.85 Y103.164 E4.37468
;WIDTH:0.410365
G1 X99.836 Y102.986 E4.38238
;WIDTH:0.45
G1 X99.822 Y102.807 E4.39102
G1 X99.597 Y102.88 E4.4024
G1 X99.436 Y103.067 E4.41427
G1 X99.417 Y103.321 E4.42652
G1 X99.504 Y103.645 E4.44266
G1 X99.655 Y103.789 E4.4527
G1 X99.887 Y103.894 E4.46495
G1 X100.185 Y103.875 E4.47931
G1 X100.287 Y103.772 E4.48628
G1 X100.366 Y103.608 E4.49504
G1 X100.432 Y103.255 E4.51231
G1 X100.331 Y102.835 E4.53309
G1 X100.006 Y102.748 E4.54927
;LAYER_CHANGE
;Z:2.15
;HEIGHT:0.3
G1 E2.54927 F2400
G92 E0
G1 Z2.15 F7800
G1 X99.922 Y99.347
G1 E2 F2400
;TYPE:Overhang perimeter
;WIDTH:0.4
;HEIGHT:0.4
G1 F900
G1 X99.919 Y99.347 E2.00016
G1 X99.9 Y99.29 E2.0033
;TYPE:Perimeter
;WIDTH:0.43283
;HEIGHT:0.3
G1 F600
G1 X99.802 Y98.997 E2.0175
;WIDTH:0.434911
G1 X99.843 Y98.571 E2.03728
G1 X99.937 Y98.549 E2.04174
G1 X100.197 Y98.637 E2.05443
G1 X100.125 Y99.021 E2.07249
;WIDTH:0.43283
G1 X100 Y99.272 E2.08538
;TYPE:Overhang perimeter
;WIDTH:0.4
;HEIGHT:0.4
G1 F900
G1 X99.973 Y99.328 E2.08863
G1 X99.75 Y99.716 F7800
G1 F900
G1 X99.565 Y99.484 E2.10413
G1 X99.43 Y99.06 E2.12738
G1 X99.433 Y98.966 E2.13229
;TYPE:Perimeter
;WIDTH:0.45
;HEIGHT:0.3
G1 F600
G1 X99.444 Y98.569 E2.15139
G1 X99.55 Y98.32 E2.16441
;TYPE:Overhang perimeter
;WIDTH:0.4
;HEIGHT:0.4
G1 F900
G1 X99.587 Y98.282 E2.16718
;TYPE:Perimeter
;WIDTH:0.45
;HEIGHT:0.3
G1 F600
G1 X99.846 Y98.173 E2.1807
G1 X100.25 Y98.223 E2.20028
G1 X100.4 Y98.318 E2.20882
;TYPE:Overhang perimeter
;WIDTH:0.4
;HEIGHT:0.4
G1 F900
G1 X100.531 Y98.402 E2.21695
G1 X100.575 Y98.654 E2.23031
G1 X100.483 Y99.137 E2.256
G1 X100.243 Y99.616 E2.28399
G1 X100.147 Y99.703 E2.29076
G1 X99.8 Y99.734 E2.30896
G1 X99.576 Y100.067 F7800
G1 F900
G1 X99.261 Y99.756 E2.33209
G1 X99.124 Y99.427 E2.35071
G1 X99.05 Y99.124 E2.36701
G1 X99.056 Y98.614 E2.39366
G1 X99.188 Y98.123 E2.42022
G1 X99.394 Y97.912 E2.43563
G1 X99.889 Y97.785 E2.46233
G1 X100.394 Y97.857 E2.48898
G1 X100.846 Y98.17 E2.5177
G1 X100.937 Y98.428 E2.53199
G1 X100.933 Y98.933 E2.55837
G1 X100.792 Y99.435 E2.58561
G1 X100.514 Y99.918 E2.61473
G1 X100.217 Y100.095 E2.63279
G1 X99.798 Y100.138 E2.6548
G1 X99.63 Y100.091 E2.66391
G1 X99.332 Y99.823 F7800
G1 E.66391 F2400
G92 E0
G1 X99.765 Y102.247 F7800
G1 E2 F2400
;TYPE:Perimeter
;WIDTH:0.45
;HEIGHT:0.3
G1 F600
G1 X100.088 Y102.217 E2.0156
G1 X100.387 Y102.278 E2.03028
G1 X100.701 Y102.47 E2.04798
G1 X100.855 Y102.677 E2.06039
G1 X100.949 Y103.335 E2.09236
G1 X100.825 Y103.903 E2.12032
G1 X100.644 Y104.186 E2.13648
G1 X100.401 Y104.35 E2.15058
G1 X100.043 Y104.413 E2.16806
G1 X99.654 Y104.359 E2.18695
G1 X99.242 Y104.136 E2.20948
G1 X99.148 Y104.018 E2.21674
G1 X98.95 Y103.648 E2.23692
G1 X98.894 Y103.177 E2.25973
G1 X98.993 Y102.783 E2.27927
G1 X99.321 Y102.448 E2.30182
G1 X99.708 Y102.266 E2.32239
G1 X99.669 Y101.873 F7800
G1 F600
G1 X99.895 Y101.838 E2.33339
G1 X100.396 Y101.869 E2.35753
G1 X100.742 Y102.024 E2.37576
G1 X101.078 Y102.296 E2.39655
G1 X101.227 Y102.572 E2.41164
G1 X101.326 Y103.096 E2.43729
G1 X101.312 Y103.518 E2.4576
G1 X101.184 Y104.05 E2.48392
G1 X100.925 Y104.453 E2.50696
G1 X100.635 Y104.664 E2.52421
G1 X100.233 Y104.791 E2.54449
G1 X99.836 Y104.788 E2.56358
G1 X99.377 Y104.674 E2.58633
G1 X98.983 Y104.428 E2.60867
G1 X98.748 Y104.136 E2.6267
G1 X98.583 Y103.772 E2.64592
G1 X98.513 Y103.337 E2.66711
G1 X98.558 Y102.837 E2.69126
G1 X98.697 Y102.53 E2.70747
G1 X99.106 Y102.123 E2.73522
G1 X99.611 Y101.886 E2.76205
G1 X99.577 Y101.512 F7800
;TYPE:External perimeter
G1 F600
G1 X99.764 Y101.456 E2.77144
G1 X100.265 Y101.463 E2.79554
G1 X100.656 Y101.555 E2.81486
G1 X101.127 Y101.811 E2.84064
G1 X101.45 Y102.16 E2.86351
G1 X101.631 Y102.549 E2.88415
G1 X101.716 Y103.215 E2.91644
G1 X101.659 Y103.823 E2.94581
G1 X101.481 Y104.316 E2.97102
G1 X101.205 Y104.721 E2.99459
G1 X100.81 Y105.007 E3.01805
G1 X100.29 Y105.175 E3.04433
G1 X99.726 Y105.163 E3.07146
G1 X99.213 Y105.026 E3.097
G1 X98.723 Y104.721 E3.12476
G1 X98.417 Y104.339 E3.1483
G1 X98.172 Y103.704 E3.18104
G1 X98.121 Y103.128 E3.20885
G1 X98.24 Y102.59 E3.23535
G1 X98.465 Y102.18 E3.25784
G1 X98.89 Y101.798 E3.28532
G1 X99.358 Y101.578 E3.31019
G1 X99.52 Y101.53 E3.31832
G1 X99.915 Y101.467 F7800
G1 E1.31832 F2400
G92 E0
G1 X99.193 Y103.396 F7800
G1 E2 F2400
;TYPE:Solid infill
G1 F600
G1 X99.249 Y102.941 E2.02205
G1 X99.48 Y102.694 E2.03832
G1 X99.906 Y102.515 E2.06054
G1 X100.228 Y102.53 E2.07604
G1 X100.572 Y102.761 E2.09597
G1 X100.655 Y103.225 E2.11864
G1 X100.574 Y103.701 E2.14186
G1 X100.475 Y103.915 E2.1532
G1 X100.295 Y104.075 E2.16478
G1 X99.976 Y104.124 E2.1803
G1 X99.656 Y104.053 E2.19607
G1 X99.384 Y103.85 E2.21239
G1 X99.268 Y103.574 E2.22679
G1 X99.674 Y103.381 E2.24841
;WIDTH:0.59443
G1 X99.667 Y103.141 E2.26428
G1 X99.988 Y102.977 E2.28811
G1 X100.161 Y103.01 E2.29975
G1 X100.194 Y103.145 E2.30894
G1 X100.125 Y103.614 E2.34028
G1 X99.992 Y103.658 E2.34954
G1 X99.746 Y103.56 E2.36705
M106 S252.45
;LAYER_CHANGE
;Z:2.45
;HEIGHT:0.3
G1 E.36705 F2400
G92 E0
G1 Z2.45 F7800
G1 X100.021 Y101.006
G1 E2 F2400
;TYPE:Overhang perimeter
;WIDTH:0.4
;HEIGHT:0.4
M106 S255
G1 F900
G1 X100.02 Y100.907 E2.00517
M106 S252.45
G1 X99.977 Y99.962 F7800
;TYPE:Perimeter
;WIDTH:0.45
;HEIGHT:0.3
G1 F813
G1 X99.8 Y99.913 E2.014
G1 X99.667 Y99.629 E2.02908
G1 X99.546 Y99.217 E2.04973
G1 X99.483 Y98.704 E2.07459
G1 X99.517 Y98.499 E2.08458
G1 X99.741 Y98.4 E2.09636
G1 X100.286 Y98.384 E2.12258
G1 X100.473 Y98.457 E2.13224
G1 X100.476 Y98.748 E2.14624
G1 X100.347 Y99.268 E2.17201
G1 X100.092 Y99.93 E2.20613
G1 X100.035 Y99.946 E2.20898
G1 X99.983 Y100.364 F7800
G1 F813
G1 X99.546 Y100.242 E2.2308
G1 X99.318 Y99.794 E2.25498
G1 X99.167 Y99.285 E2.28052
G1 X99.098 Y98.725 E2.30766
G1 X99.169 Y98.284 E2.32914
G1 X99.558 Y98.033 E2.35141
G1 X99.869 Y97.998 E2.36646
G1 X100.308 Y97.999 E2.38757
G1 X100.675 Y98.102 E2.4059
G1 X100.788 Y98.228 E2.41404
G1 X100.883 Y98.528 E2.42918
G1 X100.79 Y99.083 E2.45625
G1 X100.575 Y99.748 E2.48986
G1 X100.385 Y100.218 E2.51424
G1 X100.039 Y100.344 E2.53195
G1 X100.02 Y100.907 F7800
;TYPE:Overhang perimeter
;WIDTH:0.4
;HEIGHT:0.4
M106 S255
G1 F900
G1 X99.956 Y100.783 E2.53924
G1 X99.831 Y100.722 E2.54651
G1 X99.318 Y100.563 E2.57457
G1 X99.169 Y100.383 E2.58678
G1 X99.114 Y100.264 E2.59363
M106 S252.45
;TYPE:External perimeter
;WIDTH:0.45
;HEIGHT:0.3
G1 F813
G1 X98.926 Y99.853 E2.61537
G1 X98.787 Y99.353 E2.64033
G1 X98.706 Y98.603 E2.67661
G1 X98.805 Y98.146 E2.6991
G1 X98.983 Y97.916 E2.71309
G1 X99.436 Y97.658 E2.73816
G1 X99.899 Y97.607 E2.76056
G1 X100.467 Y97.622 E2.78789
G1 X100.874 Y97.763 E2.80861
G1 X100.978 Y97.857 E2.81535
G1 X101.126 Y98.044 E2.82682
G1 X101.236 Y98.325 E2.84133
G1 X101.26 Y98.638 E2.85643
G1 X101.164 Y99.176 E2.88271
G1 X100.935 Y99.887 E2.91864
G1 X100.781 Y100.255 E2.93783
;TYPE:Overhang perimeter
;WIDTH:0.4
;HEIGHT:0.4
M106 S255
G1 F900
G1 X100.7 Y100.449 E2.94881
G1 X100.558 Y100.568 E2.95849
G1 X100.095 Y100.733 E2.98417
G1 X100.043 Y100.852 E2.99095
M106 S252.45
G1 X99.686 Y100.672 F7800
G1 X99.973 Y101.974
;TYPE:Perimeter
;WIDTH:0.45
;HEIGHT:0.3
G1 F813
G1 X100.539 Y102.147 E3.01942
G1 X100.886 Y102.426 E3.04084
G1 X101.014 Y102.646 E3.05308
G1 X101.118 Y103.279 E3.08393
G1 X101.042 Y103.732 E3.10602
G1 X100.802 Y104.227 E3.13248
G1 X100.613 Y104.407 E3.14503
G1 X100.277 Y104.523 E3.16213
G1 X99.745 Y104.521 E3.18772
G1 X99.37 Y104.4 E3.20667
G1 X99.071 Y104.173 E3.22473
G1 X98.96 Y103.975 E3.23565
G1 X98.773 Y103.547 E3.25811
G1 X98.76 Y103.038 E3.2826
G1 X98.879 Y102.655 E3.30189
G1 X99.098 Y102.414 E3.31755
G1 X99.454 Y102.189 E3.33781
G1 X99.917 Y101.985 E3.36214
G1 X99.856 Y101.599 F7800
G1 F813
G1 X99.965 Y101.557 E3.36776
G1 X100.476 Y101.703 E3.39332
G1 X100.953 Y101.955 E3.41927
G1 X101.252 Y102.28 E3.44051
G1 X101.413 Y102.604 E3.45791
G1 X101.49 Y103.06 E3.48015
G1 X101.486 Y103.488 E3.50074
G1 X101.367 Y103.999 E3.52597
G1 X101.111 Y104.465 E3.55154
G1 X100.835 Y104.728 E3.56988
G1 X100.607 Y104.839 E3.58208
G1 X100.05 Y104.928 E3.60921
G1 X99.506 Y104.86 E3.63558
G1 X99.038 Y104.667 E3.65993
G1 X98.765 Y104.414 E3.67783
G1 X98.57 Y104.068 E3.69693
G1 X98.394 Y103.626 E3.71981
G1 X98.366 Y103.149 E3.74279
G1 X98.452 Y102.666 E3.76639
G1 X98.616 Y102.362 E3.783
G1 X98.956 Y102.025 E3.80602
G1 X99.435 Y101.758 E3.8324
G1 X99.799 Y101.62 E3.85112
G1 X99.729 Y101.222 F7800
;TYPE:External perimeter
G1 F813
G1 X99.93 Y101.149 E3.86141
;WIDTH:0.436143
G1 X100.018 Y101.028 E3.86835
G1 X100.062 Y101.171 E3.87529
;WIDTH:0.45
G1 X100.127 Y101.217 E3.87912
G1 X100.749 Y101.399 E3.91029
G1 X101.194 Y101.652 E3.93491
G1 X101.571 Y102.064 E3.96177
G1 X101.784 Y102.493 E3.98481
G1 X101.875 Y103.033 E4.01115
G1 X101.87 Y103.525 E4.03481
G1 X101.726 Y104.146 E4.06547
G1 X101.421 Y104.702 E4.09597
G1 X101.058 Y105.049 E4.12012
G1 X100.867 Y105.141 E4.13032
G1 X100.401 Y105.287 E4.15381
G1 X99.785 Y105.297 E4.18344
G1 X99.232 Y105.191 E4.21052
G1 X98.818 Y104.989 E4.23268
G1 X98.459 Y104.656 E4.25623
G1 X98.129 Y104.071 E4.28853
G1 X98.014 Y103.704 E4.30703
G1 X97.985 Y103.071 E4.33751
G1 X98.085 Y102.542 E4.3634
G1 X98.313 Y102.123 E4.38634
G1 X98.732 Y101.709 E4.41467
G1 X99.365 Y101.356 E4.44953
G1 X99.673 Y101.243 E4.46531
G1 X100.03 Y101.063 F7800
G1 X99.985 Y103.059
;TYPE:Solid infill
;WIDTH:0.366059
G1 F813
G1 X100.05 Y103.061 E4.46776
