; generated by PrusaSlicer 2.9.4 on 2026-01-10 at 20:31:25 UTC

; 

; external perimeters extrusion width = 0.45mm
; perimeters extrusion width = 0.45mm
; infill extrusion width = 0.45mm
; solid infill extrusion width = 0.45mm
; top infill extrusion width = 0.40mm
; first layer extrusion width = 0.70mm

M104 S200 ; set temperature
;TYPE:Custom
G28 ; home all axes
G1 Z5 F5000 ; lift nozzle
M109 S200 ; set temperature and wait for it to be reached
G21 ; set units to millimeters
G90 ; use absolute coordinates
M82 ; use absolute distances for extrusion
G92 E0
; Filament gcode
M107
;LAYER_CHANGE
;Z:0.35
;HEIGHT:0.35
G1 E-2 F2400
G92 E0
G1 Z.35 F7800
G1 X92.781 Y95.676
G1 E2 F2400
;TYPE:Skirt/Brim
;WIDTH:0.7
G1 F925
G1 X94.208 Y94.68 E2.15824
G1 X96.618 Y93.425 E2.40531
G1 X98.929 Y92.74 E2.62449
G1 X101.718 Y93.084 E2.88001
G1 X102.527 Y93.436 E2.96023
G1 X103.427 Y93.972 E3.05548
G1 X105.079 Y95.482 E3.25899
G1 X105.875 Y96.854 E3.40322
G1 X106.388 Y99.576 E3.65509
G1 X105.85 Y103.741 E4.03696
G1 X105.606 Y104.818 E4.13737
G1 X105.222 Y105.784 E4.23189
G1 X104.127 Y107.365 E4.40676
G1 X102.444 Y108.66 E4.59985
G1 X101.226 Y109.162 E4.71964
G1 X99.657 Y109.434 E4.86444
G1 X98.351 Y109.385 E4.98328
G1 X97.032 Y109.101 E5.10596
G1 X95.019 Y108.036 E5.31304
G1 X94.069 Y107.108 E5.4338
G1 X92.015 Y104.629 E5.72654
G1 X90.936 Y102.737 E5.92459
G1 X90.541 Y100.534 E6.1281
G1 X90.746 Y98.944 E6.27387
G1 X91.669 Y96.905 E6.47739
G1 X92.74 Y95.72 E6.62263
G1 E4.62263 F2400
G92 E0
G92 E0
G1 X99.38 Y100.363 F7800
G1 E2 F2400
;TYPE:External perimeter
;WIDTH:0.430089
G1 F925
G1 X99.377 Y100.366 E2.00022
G1 X99.325 Y99.965 E2.02111
G1 X99.499 Y99.461 E2.04865
;WIDTH:0.416595
G1 X99.601 Y99.289 E2.05859
G1 X99.849 Y99.43 E2.07277
G1 X99.713 Y99.965 E2.1002
;WIDTH:0.430089
G1 X99.418 Y100.317 E2.12392
G1 X99.314 Y99.931 F7800
G1 X97.761 Y100.719
;WIDTH:0.415111
G1 F925
G1 X97.923 Y100.769 E2.13231
;WIDTH:0.463043
G1 X97.997 Y100.881 E2.13989
;WIDTH:0.510976
G1 X98.071 Y100.993 E2.1484
;WIDTH:0.558909
G1 X98.146 Y101.105 E2.15789
;WIDTH:0.598703
G1 X98.342 Y101.26 E2.17693
;WIDTH:0.638497
G1 X98.538 Y101.416 E2.19747
G1 X98.645 Y101.551 E2.21159
;WIDTH:0.649155
G1 X99.03 Y102.328 E2.28402
G1 X98.797 Y102.003 F7800
G1 X99.38 Y102.778
;WIDTH:0.39668
G1 F925
G1 X99.318 Y102.632 E2.29144
;WIDTH:0.434087
G1 X99.275 Y102.592 E2.29451
;WIDTH:0.477114
G1 X99.232 Y102.551 E2.29799
;WIDTH:0.520141
G1 X99.189 Y102.511 E2.30179
;WIDTH:0.563168
G1 X99.146 Y102.471 E2.30596
;WIDTH:0.606195
G1 X99.103 Y102.43 E2.31055
;WIDTH:0.649223
G1 X99.06 Y102.39 E2.31546
;WIDTH:0.654446
G1 X99.081 Y102.44 E2.32003
G1 X99.074 Y102.5 E2.32512
;WIDTH:0.611485
G1 X99.067 Y102.559 E2.32976
;WIDTH:0.568524
G1 X99.061 Y102.619 E2.33409
;WIDTH:0.525563
G1 X99.054 Y102.678 E2.33798
;WIDTH:0.482602
G1 X99.048 Y102.737 E2.3415
;WIDTH:0.439641
G1 X99.041 Y102.797 E2.3447
;WIDTH:0.39668
G1 X99.067 Y102.897 E2.34953
G1 X99.321 Y102.916 E2.36145
G1 X99.392 Y102.846 E2.36612
G1 X99.38 Y102.778 E2.36935
;LAYER_CHANGE
;Z:0.65
;HEIGHT:0.3
G1 E.36935 F2400
G92 E0
G1 Z.65 F7800
G1 X99.709 Y100.015
G1 E2 F2400
;WIDTH:0.486806
G1 F600
G1 X99.71 Y100.063 E2.00253
;WIDTH:0.490986
G1 X99.776 Y100.133 E2.00765
;WIDTH:0.497056
G1 X99.991 Y100.276 E2.02158
;TYPE:Overhang perimeter
;WIDTH:0.4
;HEIGHT:0.4
G1 F900
G1 X100.779 Y100.797 E2.07093
G1 X101.23 Y101.155 E2.10101
G1 X101.294 Y101.283 E2.10849
G1 X101.226 Y101.706 E2.13087
G1 X100.963 Y102.003 E2.1516
G1 X100.317 Y102.478 E2.19349
G1 X99.789 Y102.741 E2.22431
;TYPE:External perimeter
;WIDTH:0.585678
;HEIGHT:0.3
G1 F600
G1 X99.532 Y102.87 E2.24301
G1 X99.277 Y102.919 E2.25989
G1 X99.065 Y102.878 E2.27393
G1 X98.992 Y102.602 E2.29249
G1 X99.237 Y102.441 E2.31155
G1 X99.584 Y102.296 E2.336
;WIDTH:0.561187
G1 X99.593 Y102.292 E2.33661
;TYPE:Overhang perimeter
;WIDTH:0.4
;HEIGHT:0.4
G1 F900
G1 X100.113 Y102.056 E2.36644
G1 X100.767 Y101.713 E2.40502
G1 X100.875 Y101.598 E2.41326
G1 X100.89 Y101.445 E2.42129
G1 X100.797 Y101.352 E2.42816
G1 X100.301 Y101.072 E2.45792
G1 X99.707 Y100.616 E2.49704
;TYPE:External perimeter
;WIDTH:0.496138
;HEIGHT:0.3
G1 F600
G1 X99.527 Y100.478 E2.50925
;WIDTH:0.490986
G1 X99.346 Y100.277 E2.52364
;WIDTH:0.486806
G1 X99.301 Y100.046 E2.53604
;WIDTH:0.462871
G1 X99.344 Y99.775 E2.54968
;WIDTH:0.446796
G1 X99.58 Y99.164 E2.58092
;WIDTH:0.425627
G1 X99.716 Y98.864 E2.59576
;TYPE:Overhang perimeter
;WIDTH:0.4
;HEIGHT:0.4
G1 F900
G1 X100.186 Y97.928 E2.65048
G1 X100.19 Y97.749 E2.65983
G1 X100.043 Y97.504 E2.67476
G1 X100.515 Y97.913 E2.70739
G1 X100.017 Y99.062 E2.77282
;TYPE:External perimeter
;WIDTH:0.426716
;HEIGHT:0.3
G1 F600
G1 X99.905 Y99.322 E2.78561
;WIDTH:0.446796
G1 X99.708 Y99.893 E2.81442
;WIDTH:0.486806
G1 X99.709 Y99.955 E2.81769
G1 X99.972 Y100.255 F7800
G1 E.81769 F2400
G92 E0
G1 X97.065 Y100.404 F7800
G1 E2 F2400
;WIDTH:0.404381
G1 F600
G1 X97.151 Y100.079 E2.01426
G1 X97.177 Y100.047 E2.01601
;TYPE:Overhang perimeter
;WIDTH:0.4
;HEIGHT:0.4
G1 F900
G1 X97.336 Y99.847 E2.02936
G1 X97.821 Y99.659 E2.05654
G1 X97.476 Y99.861 F7800
G1 X97.729 Y100.775
;TYPE:External perimeter
;WIDTH:0.490645
;HEIGHT:0.3
G1 F600
G1 X98.094 Y101.061 E2.08119
;LAYER_CHANGE
;Z:0.95
;HEIGHT:0.3
G1 E.08119 F2400
G92 E0
G1 Z.95 F7800
G1 X101.717 Y103.558
G1 E2 F2400
;TYPE:Overhang perimeter
;WIDTH:0.4
;HEIGHT:0.4
G1 F900
G1 X101.655 Y103.594 E2.00375
G1 X101.717 Y103.63 E2.0075
G1 X101.738 Y103.594 E2.00968
G1 X101.528 Y103.245 F7800
G1 F900
G1 X101.625 Y103.208 E2.0151
G1 X101.887 Y103.259 E2.02905
G1 X102.028 Y103.436 E2.04087
G1 X102.053 Y103.635 E2.05135
G1 X101.992 Y103.825 E2.06178
G1 X101.831 Y103.956 E2.07262
G1 X101.624 Y103.973 E2.08347
G1 X101.504 Y103.897 E2.09089
G1 X101.342 Y103.738 E2.10275
G1 X101.333 Y103.532 E2.11352
G1 X101.484 Y103.28 E2.12887
G1 X101.884 Y103.282 F7800
G1 E.12887 F2400
G92 E0
G1 X97.16 Y100.453 F7800
G1 E2 F2400
;TYPE:External perimeter
;WIDTH:0.404381
;HEIGHT:0.3
G1 F600
G1 X97.24 Y100.594 E2.00687
G1 E.00687 F2400
G92 E0
G1 X99.788 Y99.822 F7800
G1 E2 F2400
G1 F600
G1 X100.209 Y98.798 E2.04695
G1 X100.057 Y99.168 F7800
G1 E.04695 F2400
G92 E0
G1 X102.368 Y97.998 F7800
G1 E2 F2400
;TYPE:Overhang perimeter
;WIDTH:0.4
;HEIGHT:0.4
G1 F900
G1 X102.522 Y97.912 E2.00922
G1 X102.823 Y97.444 E2.03829
G1 X102.82 Y97.407 E2.04023
G1 X101.979 Y97.307 F7800
G1 F900
G1 X101.915 Y97.344 E2.04409
G1 X101.979 Y97.38 E2.04793
G1 X102 Y97.344 E2.05011
G1 E.05011 F2400
G92 E0
G1 X99.022 Y102.979 F7800
G1 E2 F2400
;TYPE:External perimeter
;WIDTH:0.597667
;HEIGHT:0.3
G1 F600
G1 X98.941 Y102.637 E2.02338
;WIDTH:0.604772
G1 X99.354 Y102.35 E2.05728
G1 X99.762 Y102.185 E2.08694
;WIDTH:0.563426
G1 X100.169 Y102.021 E2.11425
;WIDTH:0.52208
G1 X100.476 Y101.838 E2.13465
;WIDTH:0.479468
G1 X100.783 Y101.655 E2.15315
;WIDTH:0.441397
G1 X100.871 Y101.564 E2.1591
;WIDTH:0.470175
G1 X100.884 Y101.484 E2.1632
;WIDTH:0.498954
G1 X100.897 Y101.405 E2.16754
;WIDTH:0.513553
G1 X100.783 Y101.282 E2.17694
;WIDTH:0.552537
G1 X100.325 Y101.062 E2.20788
G1 X99.785 Y100.675 E2.24833
;WIDTH:0.5109
G1 X99.665 Y100.553 E2.25786
G1 X99.789 Y100.126 E2.28262
G1 X100.033 Y100.305 E2.29947
;WIDTH:0.513553
G1 X100.992 Y100.886 E2.36229
G1 X101.298 Y101.156 E2.38515
;WIDTH:0.511839
G1 X101.314 Y101.307 E2.39362
;WIDTH:0.498954
G1 X101.268 Y101.504 E2.40459
;WIDTH:0.470175
G1 X101.221 Y101.701 E2.41484
;WIDTH:0.441397
G1 X101.001 Y101.952 E2.43053
;WIDTH:0.472688
G1 X100.809 Y102.116 E2.44339
;WIDTH:0.508519
G1 X100.617 Y102.28 E2.45738
;WIDTH:0.537418
G1 X100.337 Y102.447 E2.47662
;WIDTH:0.566317
G1 X100.056 Y102.615 E2.49712
;WIDTH:0.597667
G1 X99.433 Y102.918 E2.5432
G1 X99.081 Y102.97 E2.56687
G1 X98.974 Y102.585 F7800
G1 X98.327 Y103.414
;TYPE:Overhang perimeter
;WIDTH:0.4
;HEIGHT:0.4
G1 F900
G1 X98.266 Y103.449 E2.57054
G1 X98.327 Y103.484 E2.57421
G1 X98.347 Y103.449 E2.57632
G1 X98.665 Y103.229 F7800
;TYPE:External perimeter
;WIDTH:0.45
;HEIGHT:0.3
G1 F600
G1 X98.666 Y103.238 E2.57676
;TYPE:Overhang perimeter
;WIDTH:0.4
;HEIGHT:0.4
G1 F900
G1 X98.69 Y103.483 E2.58962
G1 X98.602 Y103.694 E2.60156
G1 X98.381 Y103.812 E2.61465
G1 X98.016 Y103.744 E2.63405
G1 X97.885 Y103.558 E2.64594
G1 X97.988 Y103.251 E2.66286
G1 X98.152 Y103.117 E2.67392
G1 X98.38 Y103.088 E2.68593
G1 X98.611 Y103.202 E2.69939
G1 X98.634 Y103.602 F7800
M106 S255
;LAYER_CHANGE
;Z:1.25
;HEIGHT:0.3
G1 E.69939 F2400
G92 E0
G1 Z1.25 F7800
G1 X101.901 Y98.683
G1 E2 F2400
;HEIGHT:0.4
G1 F900
G1 X101.75 Y98.561 E2.01014
G1 X101.408 Y98.075 E2.04119
G1 X101.371 Y97.934 E2.04881
;TYPE:External perimeter
;WIDTH:0.491256
;HEIGHT:0.3
G1 F600
G1 X101.265 Y97.53 E2.07105
;WIDTH:0.489201
G1 X101.265 Y97.512 E2.072
;TYPE:Overhang perimeter
;WIDTH:0.4
;HEIGHT:0.4
G1 F900
G1 X101.283 Y97.162 E2.09031
G1 X101.769 Y96.292 E2.14237
G1 X101.915 Y96.178 E2.15205
G1 X102.424 Y95.943 E2.18134
G1 X102.754 Y95.885 E2.19885
G1 X103.102 Y95.909 E2.21707
G1 X103.449 Y96.024 E2.23617
G1 X103.934 Y96.314 E2.26569
G1 X104.164 Y96.555 E2.28309
G1 X104.402 Y96.99 E2.309
G1 X104.485 Y97.399 E2.3308
G1 X104.436 Y97.863 E2.35518
G1 X104.303 Y98.207 E2.37445
G1 X104.06 Y98.535 E2.39578
G1 X103.678 Y98.809 E2.42034
G1 X103.367 Y98.936 E2.43789
G1 X102.709 Y99.008 E2.47247
G1 X102.358 Y98.941 E2.49114
G1 X102.017 Y98.778 E2.51089
G1 X101.947 Y98.721 E2.51561
G1 X101.67 Y98.433 F7800
G1 E.51561 F2400
G92 E0
G1 X97.812 Y98.922 F7800
G1 E2 F2400
G1 F900
G1 X98.334 Y98.469 E2.03611
G1 X98.608 Y98.038 E2.06279
G1 X98.717 Y97.636 E2.08455
G1 X98.73 Y97.348 E2.09961
G1 X98.645 Y96.961 E2.12031
G1 X98.469 Y96.593 E2.14162
G1 X98.046 Y96.172 E2.1728
G1 X97.645 Y95.968 E2.19631
G1 X97.16 Y95.894 E2.22194
G1 X96.758 Y95.947 E2.24312
G1 X96.296 Y96.166 E2.26983
G1 X95.862 Y96.699 E2.30574
G1 X95.539 Y97.26 E2.33956
G1 X95.519 Y97.466 E2.35037
G1 X95.601 Y97.967 E2.37689
G1 X95.857 Y98.434 E2.40471
G1 X96.076 Y98.647 E2.42067
G1 X96.373 Y98.852 E2.43952
G1 X96.876 Y99.009 E2.46705
G1 X97.316 Y99.007 E2.49004
G1 X97.812 Y98.922 E2.51633
G1 X97.849 Y99.152 E2.5285
G1 X97.886 Y99.254 E2.53417
G1 X98.297 Y100.189 E2.58753
G1 X98.249 Y99.792 F7800
G1 X99.289 Y98.858
G1 F900
G1 X99.223 Y98.896 E2.59151
G1 X99.289 Y98.934 E2.59549
G1 X99.311 Y98.896 E2.59778
G1 X100.045 Y98.084 F7800
G1 F900
G1 X99.718 Y98.439 E2.623
G1 X100.661 Y97.888 F7800
;TYPE:External perimeter
;WIDTH:0.404381
;HEIGHT:0.3
G1 F600
G1 X100.777 Y98.164 E2.6357
;TYPE:Overhang perimeter
;WIDTH:0.4
;HEIGHT:0.4
G1 F900
G1 X101.112 Y98.99 E2.68227
G1 X100.962 Y98.619 F7800
G1 X99.968 Y97.422
G1 F900
G1 X99.905 Y97.459 E2.68609
G1 X99.968 Y97.496 E2.68991
G1 X99.99 Y97.459 E2.69216
G1 X100.255 Y97.158 F7800
G1 F900
G1 X100.42 Y97.215 E2.70128
G1 X100.184 Y97.168 E2.71385
G1 X100.255 Y97.158 E2.7176
G1 E.7176 F2400
G92 E0
G1 X101.332 Y99.437 F7800
G1 E2 F2400
G1 F900
G1 X101.428 Y99.253 E2.01084
G1 E.01084 F2400
G92 E0
G1 X100.803 Y101.461 F7800
G1 E2 F2400
;TYPE:External perimeter
;WIDTH:0.549648
;HEIGHT:0.3
G1 F600
G1 X100.824 Y101.37 E2.00565
;WIDTH:0.559296
G1 X100.703 Y101.197 E2.01868
G1 X100.871 Y101.046 E2.03262
G1 X100.887 Y100.949 E2.03869
;WIDTH:0.509418
G1 X100.904 Y100.853 E2.0441
;WIDTH:0.45954
G1 X100.921 Y100.756 E2.04895
;WIDTH:0.409662
G1 X100.938 Y100.659 E2.05319
;WIDTH:0.400078
G1 X100.986 Y100.572 E2.05735
;WIDTH:0.440371
G1 X101.034 Y100.485 E2.06201
;WIDTH:0.480664
G1 X101.081 Y100.397 E2.06719
;TYPE:Overhang perimeter
;WIDTH:0.4
;HEIGHT:0.4
G1 F900
G1 X101.161 Y100.252 E2.07584
G1 X101.334 Y99.781 E2.10205
G1 X101.388 Y99.861 E2.10709
G1 X101.661 Y100.447 E2.14086
G1 X101.75 Y100.537 E2.14747
G1 X101.37 Y100.545 E2.16733
G1 X101.345 Y100.574 E2.16933
;TYPE:External perimeter
;WIDTH:0.544998
;HEIGHT:0.3
G1 F600
G1 X101.316 Y100.608 E2.17201
;WIDTH:0.498139
G1 X101.287 Y100.643 E2.17447
;WIDTH:0.45128
G1 X101.258 Y100.677 E2.17663
;WIDTH:0.404421
G1 X101.23 Y100.712 E2.17853
;WIDTH:0.391317
G1 X101.221 Y100.784 E2.18149
;WIDTH:0.425072
G1 X101.213 Y100.855 E2.1847
;WIDTH:0.45969
G1 X101.24 Y100.953 E2.18971
;WIDTH:0.494308
G1 X101.268 Y101.05 E2.19512
;WIDTH:0.528927
G1 X101.296 Y101.148 E2.20103
G1 X101.203 Y101.669 E2.23169
;WIDTH:0.489051
G1 X101.062 Y101.865 E2.24448
;WIDTH:0.506841
G1 X100.694 Y102.212 E2.27239
;WIDTH:0.537305
G1 X100.442 Y102.375 E2.29009
;WIDTH:0.56777
G1 X100.191 Y102.537 E2.30885
;WIDTH:0.613698
G1 X99.393 Y102.919 E2.36947
G1 X99.082 Y102.984 E2.39124
;WIDTH:0.57595
G1 X98.772 Y103.05 E2.41146
;WIDTH:0.563999
G1 X98.854 Y102.977 E2.4183
;WIDTH:0.589796
G1 X98.937 Y102.905 E2.4255
;WIDTH:0.613698
G1 X98.933 Y102.657 E2.44249
;WIDTH:0.61406
G1 X99.352 Y102.333 E2.4788
G1 X99.814 Y102.141 E2.5131
;WIDTH:0.56866
G1 X100.276 Y101.95 E2.54454
;WIDTH:0.523261
G1 X100.473 Y101.822 E2.55799
;WIDTH:0.49706
G1 X100.67 Y101.695 E2.57064
;WIDTH:0.476793
G1 X100.778 Y101.568 E2.57922
;WIDTH:0.51322
G1 X100.789 Y101.52 E2.58198
G1 X100.773 Y101.12 F7800
G1 E.58198 F2400
G92 E0
G1 X98.351 Y103.441 F7800
G1 E2 F2400
;TYPE:Perimeter
;WIDTH:0.454301
G1 F600
G1 X98.327 Y103.483 E2.00235
G1 X98.254 Y103.441 E2.00645
G1 X98.327 Y103.399 E2.01055
G1 X98.069 Y103.118 F7800
;TYPE:External perimeter
;WIDTH:0.45
G1 F600
G1 X98.396 Y103.022 E2.02694
;WIDTH:0.462916
G1 X98.523 Y103.064 E2.03359
;WIDTH:0.502145
G1 X98.635 Y103.062 E2.03971
;WIDTH:0.541375
G1 X98.747 Y103.061 E2.04637
G1 X98.69 Y103.125 E2.05147
;WIDTH:0.520531
G1 X98.691 Y103.288 E2.06074
;WIDTH:0.485265
G1 X98.692 Y103.451 E2.0693
;WIDTH:0.45
G1 X98.624 Y103.78 E2.08546
G1 X98.384 Y103.841 E2.09737
G1 X98.052 Y103.783 E2.11358
G1 X97.876 Y103.595 E2.12597
G1 X97.921 Y103.306 E2.14004
G1 X98.031 Y103.163 E2.14872
G1 X98.415 Y103.051 F7800
G1 E.14872 F2400
G92 E0
G1 X99.645 Y101.106 F7800
G1 E2 F2400
;WIDTH:0.588655
G1 F600
G1 X99.625 Y101.141 E2.00264
;TYPE:Overhang perimeter
;WIDTH:0.4
;HEIGHT:0.4
G1 F900
G1 X99.612 Y101.163 E2.00398
G1 X99.547 Y101.163 E2.00738
G1 X99.514 Y101.106 E2.01082
G1 X99.535 Y101.07 E2.013
;TYPE:External perimeter
;WIDTH:0.588655
;HEIGHT:0.3
G1 F600
G1 X99.547 Y101.049 E2.01458
G1 X99.612 Y101.049 E2.01883
G1 E.01883 F2400
G92 E0
G1 X101.869 Y103.639 F7800
G1 E2 F2400
;TYPE:Perimeter
;WIDTH:0.397305
G1 F600
G1 X101.798 Y103.739 E2.00509
G1 X101.64 Y103.763 E2.01173
G1 X101.532 Y103.634 E2.01872
G1 X101.562 Y103.505 E2.02422
G1 X101.673 Y103.421 E2.03
G1 X101.818 Y103.477 E2.03645
G1 X101.869 Y103.639 E2.0435
G1 X101.445 Y103.132 F7800
;TYPE:External perimeter
;WIDTH:0.45
G1 F600
G1 X101.602 Y103.069 E2.05164
G1 X101.88 Y103.086 E2.06504
G1 X102.08 Y103.221 E2.07665
G1 X102.2 Y103.408 E2.08734
G1 X102.222 Y103.703 E2.10157
G1 X102.156 Y103.886 E2.11093
G1 X102.029 Y104.016 E2.11967
G1 X101.808 Y104.115 E2.13132
G1 X101.588 Y104.12 E2.1419
G1 X101.386 Y104.023 E2.15268
G1 X101.197 Y103.8 E2.16674
G1 X101.178 Y103.519 E2.18029
G1 X101.255 Y103.318 E2.19064
G1 X101.396 Y103.164 E2.20068
G1 X101.789 Y103.091 F7800
M106 S252.45
;LAYER_CHANGE
;Z:1.55
;HEIGHT:0.3
G1 E.20068 F2400
G92 E0
G1 Z1.55 F7800
G1 X101.927 Y98.719
G1 E2 F2400
;WIDTH:0.540425
G1 F782
G1 X101.662 Y98.479 E2.02123
;WIDTH:0.540045
G1 X101.373 Y98.011 E2.05386
;WIDTH:0.529469
G1 X101.242 Y97.399 E2.09017
G1 X101.357 Y96.867 E2.12174
;WIDTH:0.508197
G1 X101.528 Y96.562 E2.1411
;WIDTH:0.510977
G1 X101.893 Y96.195 E2.16993
G1 X102.214 Y96.012 E2.19051
;WIDTH:0.510423
G1 X102.741 Y95.886 E2.22065
;WIDTH:0.541435
G1 X103.237 Y95.944 E2.25036
G1 X103.733 Y96.16 E2.28255
;WIDTH:0.534181
G1 X104.031 Y96.404 E2.30512
G1 X104.335 Y96.819 E2.33526
;WIDTH:0.521539
G1 X104.48 Y97.283 E2.36298
G1 X104.492 Y97.445 E2.37224
;WIDTH:0.531725
G1 X104.45 Y97.837 E2.39522
;WIDTH:0.546559
G1 X104.246 Y98.315 E2.42648
G1 X104.023 Y98.585 E2.44754
;WIDTH:0.540109
G1 X103.78 Y98.767 E2.46555
;WIDTH:0.545857
G1 X103.416 Y98.928 E2.48945
G1 X102.85 Y99.016 E2.52385
;WIDTH:0.522395
G1 X102.508 Y98.982 E2.54348
;WIDTH:0.534369
G1 X102.23 Y98.896 E2.56054
;WIDTH:0.540425
G1 X101.976 Y98.753 E2.57785
G1 X101.682 Y98.482 F7800
G1 E.57785 F2400
G92 E0
G1 X98.1 Y99.721 F7800
G1 E2 F2400
;WIDTH:0.479893
G1 F782
G1 X98.189 Y99.943 E2.0124
;WIDTH:0.45482
G1 X98.279 Y100.165 E2.02407
;WIDTH:0.472207
